!!!!SEGMENT: pl-wtm--r-1141-1--001_dobrzynski-ignacy-feliks--quartetto-op-8-allegro.krn
!!!cenid: 18xx:1744
!!!COM: Dobrzyński, Ignacy Feliks
!!!COM-rism: pe30020642
!!!CDT: 1807/02/15-1867/10/09
!!!CNT: Polish
!!!OTL: Quartetto op. 8 – Allegro
!!!OMD: Allegro
!!!PDT: 1829
!!!AGN: Secular; String quartet
!!!SMS-siglum: PL-Wtm
!!!SMS-shelfmark: R 1141/1
!!!SMS-variant:
!!!SMS-altvar:
!!!NIFC-rismID: 1001056491
!!!system-decoration: [(s1,s2,s3,s4)]
**kern	**dynam	**kern	**dynam	**kern	**dynam	**kern	**dynam
*part4	*part4	*part3	*part3	*part2	*part2	*part1	*part1
*staff4	*	*staff3	*	*staff2	*	*staff1	*
*I"Violoncelle	*	*I"Alto	*	*I"Violono [II]	*	*I"Violono [I]	*
*I'[vlc]	*	*I'[vla]	*	*I'[vl II]	*	*I'[vl I]	*
*clefF4	*	*clefC3	*	*clefG2	*	*clefG2	*
*k[b-]	*	*k[b-]	*	*k[b-]	*	*k[b-]	*
*M6/8	*	*M6/8	*	*M6/8	*	*M6/8	*
*>[A,A1,A,A2,B,C,D]	*	*>[A,A1,A,A2,B,C,D]	*	*>[A,A1,A,A2,B,C,D]	*	*>[A,A1,A,A2,B,C,D]	*
=1	=1	=1	=1	=1	=1	=1	=1
*>A	*	*>A	*	*>A	*	*>A	*
*	*	*^	*	*	*	*	*
!	!	!LO:TX:a:Bi:t=Col Baſso 8va	!	!	!LO:TX:a:Bi:t=Col Imo uniſono	!	!	!
!	!	!LO:TX:a:t=P:W źródle dopisane nuty w pierwszych dwóch taktach [rozpisane w subspinie]:problem	!	!	!	!	!	!
!	!	!LO:N:vis=4	!	!	!	!	!	!
[>4.d\	.	[>4.dd\yy	4.dd\	ff	[>4.ddd\yy	ff	[>4.ddd\	ff
8d\L]	.	8dd\L]yy	8dd\L	.	8ddd\L]yy	.	8ddd\L]	.
8F\	.	8f\yy	8f\	.	8ff\yy	.	8ff\	.
8G\J	.	8g\Jyy	8g\J	.	8gg\Jyy	.	8gg\J	.
=2	=2	=2	=2	=2	=2	=2	=2	=2
8A\L	.	8a\Lyy	8a\L	.	8aa\Lyy	.	8aa\L	.
8D\	.	8d\yy	8d\	.	8dd\yy	.	8dd\	.
8E\J	.	8e\Jyy	8e\J	.	8ee\Jyy	.	8ee\J	.
8F\L	.	8f\Lyy	8f\L	.	8ff\Lyy	.	8ff\L	.
8AA\	.	8A\yy	8A\	.	8a\yy	.	8a\	.
8D\J	.	8d\Jyy	8d\J	.	8dd\Jyy	.	8dd\J	.
*	*	*v	*v	*	*	*	*	*
=3	=3	=3	=3	=3	=3	=3	=3
4DD/	.	4D/	.	4d/	.	4.d/	.
8r	.	8r	.	8r	p	.	.
8r	.	8r	p	(>[>4.ff^<\	.	4r	.
(>8d'>\L	.	(>8f'>\L	.	.	.	.	.
8e'>\J)	.	8g'>\J)	.	.	.	8r	.
=4	=4	=4	=4	=4	=4	=4	=4
(>4.f\	.	(>4.a\	.	8ff\L]	.	2.r	.
.	.	.	.	8dd\	.	.	.
.	.	.	.	8cc#X\J	.	.	.
4.d\)	.	[>4.f\)	.	8dd\L	.	.	.
.	.	.	.	8bb-\	.	.	.
.	.	.	.	8aa\J)	.	.	.
=5	=5	=5	=5	=5	=5	=5	=5
(>2.B-\	.	(>8f\L]	.	2.gg#Xtt>\	.	2.r	.
.	.	8d\	>	.	.	.	.
.	.	8e\J	.	.	.	.	.
.	.	8f\L	.	.	.	.	.
.	.	8e\	]	.	.	.	.
.	.	8d\J	.	.	.	.	.
.	.	.	.	16qqff#X/LL	.	.	.
.	.	.	.	16qqgg#/JJ	.	.	.
=6	=6	=6	=6	=6	=6	=6	=6
8A\L)	.	4c#X\)	.	4aa\	.	2.r	.
8C#X\	.	.	.	.	.	.	.
8E\J	.	8r	.	8r	.	.	.
4AA/	.	4r	.	4r	.	.	.
8r	.	8r	.	8r	.	.	.
=7	=7	=7	=7	=7	=7	=7	=7
!	!	!	!	!LO:TX:a:Bi:t=Col Imo:problem: w źródle jako znak repetycji:problem	!	!	!
[>4.a\	ff	[>4.a\	ff	[>4.aa\yy	ff	[>4.aa\	ff
8a\L]	.	8a\L]	.	8aa\L]yy	.	8aa\L]	.
8c\	.	8c\	.	8cc\yy	.	8cc\	.
8d\J	.	8d\J	.	8dd\Jyy	.	8dd\J	.
=8	=8	=8	=8	=8	=8	=8	=8
8e\L	.	8e/L	.	8ee\Lyy	.	8ee\L	.
8A\	.	8A/	.	8a\yy	.	8a\	.
8Bn\J	.	8Bn/J	.	8bn\Jyy	.	8bn\J	.
8c\L	.	8c/L	.	8cc/Lyy	.	8cc/L	.
8E\	.	8E/	.	8e/yy	.	8e/	.
8A\J	.	8A/J	.	8a/Jyy	.	8a/J	.
=9	=9	=9	=9	=9	=9	=9	=9
4AA/	.	4A/	.	4A/	.	4A/	.
8r	.	8r	.	8r	.	8r	.
!	!LO:DY:b:rj	!	!	!	!	!	!
[>4.c^<\	p	4r	.	(>8r	.	8r	.
!	!	!	!	!	!LO:DY:b:rj	!	!LO:DY:b:rj
.	.	.	.	8cc'>\L	p	(>8ee'>\L	p
.	.	8r	.	8bn'>\J	.	8dd'>\J	.
=10	=10	=10	=10	=10	=10	=10	=10
!	!	!	!	!LO:TX:t=P:problem:brak początku ligatury	!	!LO:N:vis=2	!
8c\L]	.	2.r	.	[>2.a\)	.	2.cc\)	.
(>8A\	.	.	.	.	.	.	.
8G#X\J	.	.	.	.	.	.	.
8A\L	.	.	.	.	.	.	.
8f\	.	.	.	.	.	.	.
!LO:TX:a:t=P:W źródle łuk kończy się za kreską taktową:problem	!	!	!	!	!	!	!
8e\J)	.	.	.	.	.	.	.
!!LO:LB:g=original
=11	=11	=11	=11	=11	=11	=11	=11
2.d#Xtt>\	.	2.r	.	(>8a\L]	.	(>2.ff#X\	.
.	.	.	.	8a\	.	.	.
.	.	.	.	8bn\J	.	.	.
.	.	.	.	8cc\L	.	.	.
.	.	.	.	8b\	.	.	.
!	!	!	!	!LO:TX:a:t=P:w źródle łuk kończy się za nutą:problem	!	!	!
.	.	.	.	8a\J)	.	.	.
(<16qqc##X/LL	.	.	.	.	.	.	.
16qqd#/JJ)	.	.	.	.	.	.	.
=12	=12	=12	=12	=12	=12	=12	=12
!	!	!	!	!LO:N:vis=4	!	!	!
4.e\	.	2.r	.	(>[<4.g#X/	.	8ee\L)	.
.	.	.	.	.	.	8bn'>\	.
.	.	.	.	.	.	8cc'>\J	.
(>8E\L	.	.	.	8g#/L]	.	(>4.dd\	.
8F#X\	.	.	.	8a/	.	.	.
8G#X\J	.	.	.	8bn/J	.	.	.
=13	=13	=13	=13	=13	=13	=13	=13
8A\L	.	4r	.	8a/	.	8cc\L)	.
8Bn\	.	.	.	[<4e/	.	8g#X'>\	.
8c\J)	.	8r	.	.	.	[>8a'>\J	.
(>8C/L	.	(>[<4.A/	.	8e/])	.	8a/L]	.
8C#X/	.	.	.	8r	.	8e'</	.
[<8D/J	.	.	.	8r	.	(<[<8f/J	.
=14	=14	=14	=14	=14	=14	=14	=14
8D\L]	.	4.A/]	.	2.r	.	8f/L]	.
8E\	.	.	.	.	.	8e/	.
[>8F\J	.	.	.	.	.	8d#X/J)	.
!LO:TX:a:t=P:w źródle łuk kończy się za nutą:problem	!	!	!	!	!	!	!
4.F\])	.	8c/L	.	.	.	4.d#tt>/	.
.	.	8Bn/	.	.	.	.	.
.	.	8A/J)	.	.	.	.	.
.	.	.	.	.	.	16qqc##X/LL	.
.	.	.	.	.	.	16qqd#/JJ	.
=15	=15	=15	=15	=15	=15	=15	=15
[>2.E\	.	(>4.G#X/	.	(>8r	.	4e/	.
.	.	.	.	8ee\L	.	.	.
.	.	.	.	8dd\J	.	8r	.
.	.	8A/L	.	8cc\L	.	4r	.
.	.	8Bn/	.	8g#X\	.	.	.
.	.	8c/J)	.	8a\J)	.	8r	.
=16	=16	=16	=16	=16	=16	=16	=16
.	.	.	.	(<16qqb-/LL	.	.	.
.	.	.	.	16qqcc/JJ	.	.	.
2.E\]	.	[>2.c/	.	(>8b-\L)	.	2.gg\	.
.	.	.	.	8a\	.	.	.
.	.	.	.	8b-\J	.	.	.
.	.	.	.	8dd\L	.	.	.
.	.	.	.	8cc\	.	.	.
.	.	.	.	8b-\J	.	.	.
=17	=17	=17	=17	=17	=17	=17	=17
4.F\	.	4.c/]	.	4.a/)	.	8ff\L	.
.	.	.	.	.	.	8gg#X\	.
!	!	!	!	!	!	!LO:TX:b:Bi:t=cres_:problem:dynamics with extention lines	!
!	!	!	!	!	!	!	!LO:HP:b:Bi:t=cres:ext=ud
.	.	.	.	.	.	[>8aa\J	<
!	!	!	!	!LO:TX:b:Bi:t=cres_:problem:dynamics with extention lines	!	!	!
!	!	!	!	!	!LO:HP:b:Bi:t=cres:ext=ud	!	!
!	!	!LO:TX:b:Bi:t=cres_:problem:dynamics with extention lines	!	!	!	!	!
!	!	!	!LO:HP:b:Bi:t=cres:ext=ud	!	!	!	!
4.E\	.	4.c#X\	<	4.g/	<	8aa\L]	.
.	.	.	.	.	.	8a\	.
.	.	.	.	.	.	[>8aa\J	.
=18	=18	=18	=18	=18	=18	=18	=18
4.D\	.	4.d\	.	4.f/	.	8aa\L]	.
.	.	.	.	.	.	8a\	.
.	.	.	.	.	.	[>8aa\J	.
4.C/	.	4.f\	[[	4.ee-X 4.f/	[[	8aa\L]	.
.	.	.	.	.	.	8a\	.
.	.	.	.	.	.	(>8aa\J	[[
=19	=19	=19	=19	=19	=19	=19	=19
[<2.BB-/	.	[>2.B- [<2.F/	f	[<2.d/	f	4.bb-\)	f
.	.	.	.	.	.	8ddd\L	.
.	.	.	.	.	.	8ff\	.
.	.	.	.	.	.	8aa\J	.
=20	=20	=20	=20	=20	=20	=20	=20
!	!	!LO:TX:b:Bi:t=dim_:problem:dynamics with extention lines	!	!	!	!	!
!	!	!	!LO:HP:b:Bi:t=dim:ext=ud	!	!	!	!
!	!	!	!	!LO:TX:b:Bi:t=dim_:problem:dynamics with extention lines	!	!	!
!	!	!	!	!	!LO:HP:b:Bi:t=dim:ext=ud	!	!
!LO:N:vis=2	!	!	!	!	!	!	!
2.BB-/_<	.	2.B-_> 2.F/_<	>	2.d/_<	>	8bb-\L	.
!	!	!	!	!	!	!LO:TX:b:Bi:t=dim_:problem:dynamics with extention lines	!
!	!	!	!	!	!	!	!LO:HP:b:Bi:t=dim:ext=ud
.	.	.	.	.	.	8dd\	>
.	.	.	.	.	.	8ff\J	.
.	.	.	.	.	.	8b-\L	.
.	.	.	.	.	]	8dd\	.
.	.	.	]]	.	.	8f\J	]
!!LO:LB:g=original
=21	=21	=21	=21	=21	=21	=21	=21
*	*	*^	*	*	*	*	*
!	!	!LO:N:vis=4	!	!	!	!	!	!
2.BB-/_<	.	4.B-/]	2.F\_<	p	2.d/_<	p	(>[<4.b-/	p
.	.	4ryy	.	.	.	.	4b-/]	.
.	.	8ryy	.	.	.	.	8a/	.
*	*	*v	*v	*	*	*	*	*
=22	=22	=22	=22	=22	=22	=22	=22
2.BB-/]	.	2.F/_<	.	8d/L]	.	2.g#X/)	.
.	.	.	.	(<8d/	.	.	.
.	.	.	.	8e/J	.	.	.
.	.	.	.	8f/L	.	.	.
.	.	.	.	8e/	.	.	.
.	.	.	.	8d/J)	.	.	.
=23	=23	=23	=23	=23	=23	=23	=23
[<2.AA/	.	4.F/]	.	4.d/	.	(>8a\L	.
.	.	.	.	.	.	8cc\	.
.	.	.	.	.	.	8ee\J	.
!	!	!LO:N:vis=4	!	!	!	!	!
.	.	4.A/	.	4.f/	.	8ff\L	.
.	.	.	.	.	.	8ee\	.
.	.	.	.	.	.	8dd\J)	.
=24	=24	=24	=24	=24	=24	=24	=24
2.AA/]	.	2.e\	<[	(>2.g [<2.A/	<[	8aa\L	<
.	.	.	.	.	.	8aa\	.
.	.	.	.	.	.	8bb-\J	.
.	.	.	.	.	.	8bbn\L	.
.	.	.	.	.	.	8ccc\	[
.	.	.	.	.	.	8ccc#X\J	.
=25	=25	=25	=25	=25	=25	=25	=25
*tremolo	*	*tremolo	*	*	*	*	*
!	!	!	!	!LO:S:s=1:note:problem:note-level slur	!	!	!
8D\L	.	8d\L	ff	8fL) 8A/]	.	[>4.ddd\	ff
8D\	.	8d\	.	8f 8A/	.	.	.
8D\	.	8d\	.	8fJ 8A/	.	.	.
*	*	*	*	*tremolo	*	*	*
8D\	.	8d\	.	8fL 8A/	.	8ddd\L]	.
8D\	.	8d\	.	8f 8A/	.	8ff\	.
8D\J	.	8d\J	.	8fJ 8A/	.	8gg\J	.
=26	=26	=26	=26	=26	=26	=26	=26
8D\L	.	8d\L	.	8fL 8A/	.	8aa\L	.
8D\	.	8d\	.	8f 8A/	.	8dd\	.
8D\	.	8d\	.	8f 8A/	.	8ee\J	.
8D\	.	8d\	.	8f 8A/	.	8ff\L	.
8D\	.	8d\	.	8f 8A/	.	8a\	.
8D\J	.	8d\J	.	8fJ 8A/	.	8dd\J	.
=27	=27	=27	=27	=27	=27	=27	=27
*	*	*rep	*	*rep	*	*	*
8D\L	.	8d\L	.	8fL 8A/	.	8d/L	.
8D\	.	8d\	.	8f 8A/	.	16c#X/L	.
.	.	.	.	.	.	16d/	.
8D\	.	8d\	.	8f 8A/	.	16f/	.
.	.	.	.	.	.	16d/JJ	.
8D\	.	8d\	.	8f 8A/	.	16a/LL	.
.	.	.	.	.	.	16f/	.
8D\	.	8d\	.	8f 8A/	.	16dd/	.
.	.	.	.	.	.	16a/	.
8D\J	.	8d\J	.	8fJ 8A/	.	16ff/	.
.	.	.	.	.	.	16ee/JJ	.
*	*	*Xrep	*	*Xrep	*	*	*
=28	=28	=28	=28	=28	=28	=28	=28
*	*	*rep	*	*rep	*	*	*
8D\L	.	8d\L	.	8fL 8A/	.	16dd~>\LL	.
.	.	.	.	.	.	16cc#X\	.
8D\	.	8d\	.	8f 8A/	.	16dd\	.
.	.	.	.	.	.	16ee\	.
8D\	.	8d\	.	8f 8A/	.	16ff\	.
.	.	.	.	.	.	16gg\JJ	.
8D\	.	8d\	.	8f 8A/	.	16aa\LL	.
.	.	.	.	.	.	16gg#X\	.
8D\	.	8d\	.	8f 8A/	.	16aa\	.
.	.	.	.	.	.	16bbn\	.
8D\J	.	8d\J	.	8fJ 8A/	.	16ccc#X\	.
.	.	.	.	.	.	16ddd\JJ	.
*	*	*Xrep	*	*Xrep	*	*	*
=29	=29	=29	=29	=29	=29	=29	=29
8D\L	.	8e\L	.	8gL 8B-/	.	4.eee\	.
8D\	.	8e\	.	8g 8B-/	.	.	.
8D\	.	8e\	.	8g 8B-/	.	.	.
!	!	!	!	!	!	!LO:TX:t=P:problem:w źródle na końcu systemu za kreską taktową klucz clefC1	!
8D\	.	8e\	.	8g 8B-/	.	[>4.ggg\	.
8D\	.	8e\	.	8g 8B-/	.	.	.
8D\J	.	8e\J	.	8gJ 8B-/	.	.	.
!!LO:LB:g=original
=30	=30	=30	=30	=30	=30	=30	=30
8D\L	.	8e\L	.	8gL 8B-/	.	8ggg\L]	.
8D\	.	8e\	.	8g 8B-/	.	8bb-\	.
8D\	.	8e\	.	8g 8B-/	.	8eee\J	.
8D\	.	8e\	.	8g 8B-/	.	8gg\L	.
8D\	.	8e\	.	8g 8B-/	.	8bb-\	.
8D\J	.	8e\J	.	8gJ 8B-/	.	8dd\J	.
=31	=31	=31	=31	=31	=31	=31	=31
*rep	*	*	*	*	*	*	*
8D\L	.	8e\L	.	8gL 8A/	.	16cc#X\LL	.
.	.	.	.	.	.	16dd\	.
8D\	.	8e\	.	8g 8A/	.	16ee\	.
.	.	.	.	.	.	16ff\	.
8D\	.	8e\	.	8g 8A/	.	16gg\	.
.	.	.	.	.	.	16gg#X\JJ	.
.	.	.	.	.	.	(<8qbb-/	.
8D\	.	8e\	.	8g 8A/	.	16aa\LL)	.
.	.	.	.	.	.	16gg#\	.
8D\	.	8e\	.	8g 8A/	.	16aa\	.
.	.	.	.	.	.	16bbn\	.
!	!	!	!	!	!	!LO:SIC:v:s=16ccc#\	!
8D\J	.	8e\J	.	8gJ 8A/	.	16ccc\	.
.	.	.	.	.	.	16ddd\JJ	.
*Xrep	*	*	*	*	*	*	*
=32	=32	=32	=32	=32	=32	=32	=32
*rep	*	*	*	*	*	*	*
8D\L	.	8c#X\L	.	8gL 8A/	.	16eee\LL	.
.	.	.	.	.	.	(>16aa\	.
8D\	.	8c#\	.	8g 8A/	.	16ccc#X\)	.
.	.	.	.	.	.	(>16ee\	.
8D\	.	8c#\	.	8g 8A/	.	16aa\)	.
!	!	!	!	!	!	!LO:SIC:v:s=16cc#\JJ	!
.	.	.	.	.	.	(>16cc\JJ	.
8D\	.	8c#\	.	8g 8A/	.	16ee\LL)	.
.	.	.	.	.	.	(>16a\	.
8D\	.	8c#\	.	8g 8A/	.	16b-\)	.
.	.	.	.	.	.	16a'>\	.
8D\J	.	8c#\J	.	8gJ 8A/	.	16g'>\	.
.	.	.	.	.	.	16e'>\JJ	.
*Xrep	*	*	*	*	*	*	*
*Xtremolo	*	*	*	*	*	*	*
=33	=33	=33	=33	=33	=33	=33	=33
8DD/L	.	8d\L	.	8fL 8A/	.	4.d/	.
8D/	.	8d\	.	8f 8A/	.	.	.
8D/J	.	8d\	.	8f 8A/	.	.	.
*tremolo	*	*	*	*	*	*	*
8D\L	.	8d\	.	8f 8A/	.	[>4.ddd\	.
8D\	.	8d\	.	8f 8A/	.	.	.
8D\J	.	8d\J	.	8fJ 8A/	.	.	.
=34	=34	=34	=34	=34	=34	=34	=34
8D\L	.	8d\L	.	8fL 8A/	.	8ddd\L]	.
8D\	.	8d\	.	8f 8A/	.	8ff\	.
8D\	.	8d\	.	8f 8A/	.	8gg\J	.
8D\	.	8d\	.	8f 8A/	.	8aa\L	.
8D\	.	8d\	.	8f 8A/	.	8dd\	.
8D\J	.	8d\J	.	8fJ 8A/	.	8ee\J	.
=35	=35	=35	=35	=35	=35	=35	=35
8D\L	.	8d\L	.	8fL 8A/	.	8ff\L	.
8D\	.	8d\	.	8f 8A/	.	8a\	.
8D\	.	8d\J	.	8fJ 8A/	.	8dd\J	.
8D\	.	8F/L	.	8A/L	.	8d/L	.
8D\	.	8F/	.	8A/	.	16d/L	.
.	.	.	.	.	.	16c#X/	.
8D\J	.	8F/J	.	8A/J	.	16d/	.
.	.	.	.	.	.	16e/JJ	.
=36	=36	=36	=36	=36	=36	=36	=36
8D/L	.	8F/L	.	8A/L	.	8f/L	.
8D/	.	8F/	.	8A/	.	16d/L	.
.	.	.	.	.	.	16f/	.
8D/J	.	8F/	.	8A/J	.	16a/	.
.	.	.	.	.	.	16cc#X/JJ	.
8C/L	.	8F/	.	8A-X/L	.	16dd\LL	.
.	.	.	.	.	.	16cc#\	.
8C/	.	8F/	.	8A-/	.	16dd\	.
.	.	.	.	.	.	16ee\	.
8C/J	.	8F/J	.	8A-/J	.	16ff\	.
.	.	.	.	.	.	16ee\JJ	.
*	*	*Xtremolo	*	*Xtremolo	*	*	*
=37	=37	=37	=37	=37	=37	=37	=37
8BBn/L	.	8F/L	.	8G/L	.	4.dd\	.
8BB/	.	8d/	.	8f 8G/	.	.	.
8BB/	.	8d/J	.	8fJ 8G/	.	.	.
*	*	*tremolo	*	*tremolo	*	*	*
8BB/	.	8d\L	.	8fL 8G/	.	[>4.ddd\	.
8BB/	.	8d\	.	8f 8G/	.	.	.
8BB/J	.	8d\J	.	8fJ 8G/	.	.	.
!!LO:LB:g=original
=38	=38	=38	=38	=38	=38	=38	=38
8BBn/L	.	8d\L	.	8fL 8G/	.	16ddd\LL]	.
.	.	.	.	.	.	16ccc\	.
8BB/	.	8d\	.	8f 8G/	.	16bbn\	.
.	.	.	.	.	.	16aa\	.
8BB/	.	8d\	.	8f 8G/	.	16gg\	.
.	.	.	.	.	.	16ff#X\JJ	.
8BB/	.	8d\	.	8f 8G/	.	16aa\LL	.
.	.	.	.	.	.	16gg\	.
8BB/	.	8d\	.	8f 8G/	.	16ffn\	.
.	.	.	.	.	.	16ee\	.
8BB/J	.	8d\J	.	8fJ 8G/	.	16dd\	.
.	.	.	.	.	.	16cc#X\JJ	.
=39	=39	=39	=39	=39	=39	=39	=39
*rep	*	*rep	*	*rep	*	*	*
8BBn/L	.	8d\L	.	8fL 8G/	.	16dd\LL	.
.	.	.	.	.	.	16ccn\	.
8BB/	.	8d\	.	8f 8G/	.	16bn\	.
.	.	.	.	.	.	16a\	.
8BB/	.	8d\	.	8f 8G/	.	16g\	.
.	.	.	.	.	.	16f#X\JJ	.
8BB/	.	8d\	.	8f 8G/	.	8g/L	.
8BB/	.	8d\	.	8f 8G/	.	8d/	.
8BB/J	.	8d\J	.	8fJ 8G/	.	8g/J	.
*Xrep	*	*Xrep	*	*Xrep	*	*	*
=40	=40	=40	=40	=40	=40	=40	=40
*rep	*	*rep	*	*rep	*	*	*
8BBn/L	.	8d\L	.	8fL 8G/	.	8Bn/L	.
8BB/	.	8d\	.	8f 8G/	.	8d/	.
8BB/	.	8d\	.	8f 8G/	.	8G/J	.
8BB/	.	8d\	.	8f 8G/	.	16B/LL	.
.	.	.	.	.	.	16d/	.
8BB/	.	8d\	.	8f 8G/	.	16g/	.
!	!	!	!	!	!	!LO:SIC:v:s=16bn/	!
.	.	.	.	.	.	16b-/	.
8BB/J	.	8d\J	.	8fJ 8G/	.	16dd/	.
.	.	.	.	.	.	16gg/JJ	.
*Xrep	*	*Xrep	*	*Xrep	*	*	*
*Xtremolo	*	*Xtremolo	*	*Xtremolo	*	*	*
=41	=41	=41	=41	=41	=41	=41	=41
8C/L	.	4c\	ff	4e 4G/	ff	4ee\	ff
16BBn/L	.	.	.	.	.	.	.
16C/	.	.	.	.	.	.	.
16E/	.	8r	.	8r	.	8r	.
16G/JJ	.	.	.	.	.	.	.
16c\LL	.	[>4.g\	fz	[>4.cc [<4.e/	fz	[>4.eee\	fz
16Bn\	.	.	.	.	.	.	.
16A\	.	.	.	.	.	.	.
16G\	.	.	.	.	.	.	.
16F#X\	.	.	.	.	.	.	.
16G\JJ	.	.	.	.	.	.	.
=42	=42	=42	=42	=42	=42	=42	=42
16A\LL	.	8g\L]	.	8cc]L 8e/]	.	8eee\L]	.
16G\	.	.	.	.	.	.	.
16Fn\	.	8g\	.	8cc 8e/	.	8ccc\	.
16E\	.	.	.	.	.	.	.
16D#X\	.	8g\J	.	8ccJ 8e/	.	8gg\J	.
16E\JJ	.	.	.	.	.	.	.
*	*	*tremolo	*	*tremolo	*	*	*
16F\LL	.	8g\L	.	8ccL 8e/	.	8ccc\L	.
16E\	.	.	.	.	.	.	.
16Dn\	.	8g\	.	8cc 8e/	.	8gg\	.
16C\	.	.	.	.	.	.	.
16E\	.	8g\J	.	8ccJ 8e/	.	8ee\J	.
16C\JJ	.	.	.	.	.	.	.
*	*	*Xtremolo	*	*Xtremolo	*	*	*
=43	=43	=43	=43	=43	=43	=43	=43
8AA/L	.	4a\	.	4cc 4e/	.	4cc\	.
16GG#X/L	.	.	.	.	.	.	.
16AA/	.	.	.	.	.	.	.
16C/	.	8r	.	8r	.	8r	.
16E/JJ	.	.	.	.	.	.	.
16A\LL	.	[>4.a\	fz	[>4.cc [<4.e/	fz	[>4.ccc\	fz
16Gn\	.	.	.	.	.	.	.
16F\	.	.	.	.	.	.	.
16E\	.	.	.	.	.	.	.
16D#X\	.	.	.	.	.	.	.
16E\JJ	.	.	.	.	.	.	.
=44	=44	=44	=44	=44	=44	=44	=44
16F\LL	.	8a\L]	.	8cc]L 8e/]	.	8ccc\L]	.
16E\	.	.	.	.	.	.	.
16D\	.	8a\	.	8cc 8e/	.	8aa\	.
16C\	.	.	.	.	.	.	.
16BBn\	.	8a\J	.	8ccJ 8e/	.	8ee\J	.
16AA\JJ	.	.	.	.	.	.	.
*	*	*tremolo	*	*tremolo	*	*	*
16GG#X/LL	.	8a\L	.	8ccL 8e/	.	8cc/L	.
16AA/	.	.	.	.	.	.	.
16BB/	.	8a\	.	8cc 8e/	.	8a/	.
16AA/	.	.	.	.	.	.	.
16C/	.	8a\J	.	8ccJ 8e/	.	8e/J	.
16AA/JJ	.	.	.	.	.	.	.
*	*	*Xtremolo	*	*Xtremolo	*	*	*
=45	=45	=45	=45	=45	=45	=45	=45
4FF/	.	8a\L	.	4cc 4f/	.	4f/	.
.	.	16g\L	.	.	.	.	.
.	.	16f\	.	.	.	.	.
8r	.	16e\	.	8r	.	8r	.
.	.	16d\JJ	.	.	.	.	.
[>4.F\	fz	8c/L	.	[>4.cc\	fz	[>4.aa\	fz
.	.	8f/	.	.	.	.	.
.	.	8A/J	.	.	.	.	.
!!LO:PB:g=original
=46	=46	=46	=46	=46	=46	=46	=46
!LO:TX:t=P:problem:mixed beam	!	!	!	!	!	!	!
8F\L]	.	8c/L	.	8cc\L]	.	8aa\L]	.
8FF/	.	8F/	.	8cc\	.	8aa\	.
8FF/J	.	8A/J	.	8cc\J	.	8aa\J	.
*tremolo	*	*	*	*tremolo	*	*	*
8FF/L	.	16C/LL	.	8cc\L	.	8aa\L	.
.	.	16F/	.	.	.	.	.
8FF/	.	16A/	.	8cc\	.	8aa\	.
.	.	16c/	.	.	.	.	.
8FF/J	.	16f/	.	8cc\J	.	8aa\J	.
.	.	16a/JJ	.	.	.	.	.
*Xtremolo	*	*	*	*	*	*	*
=47	=47	=47	=47	=47	=47	=47	=47
!LO:TX:t=P:problem:mixed beam	!	!	!	!	!	!	!
*	*	*tremolo	*	*	*	*	*
8EE/L	sf	8a\L	sf	8cc\L	sf	8ccc\L	.
8E\	.	8a\	.	8cc\	.	(>16bbn\L	.
.	.	.	.	.	.	16aa\	.
8E\J	.	8a\J	.	8cc\J	.	16gg#X\	.
.	.	.	.	.	.	16aa\JJ	.
*tremolo	*	*	*	*	*	*	*
8D#X\L	sf	8a\L	sf	8cc\L	sf	8ccc\L)	.
8D#\	.	8a\	.	8cc\	.	(>16bb\L	.
.	.	.	.	.	.	16aa\	.
8D#\J	.	8a\J	.	8cc\J	.	16gg#\	.
.	.	.	.	.	.	16aa\JJ	.
=48	=48	=48	=48	=48	=48	=48	=48
8E-X\L	sf	8a\L	sf	8cc\L	sf	8ccc\L)	.
8E-\	.	8a\	.	8cc\	.	(>16bbn\L	.
.	.	.	.	.	.	16aa\	.
8E-\J	.	8a\J	.	8cc\J	.	16gg#X\	.
.	.	.	.	.	.	16aa\JJ	.
*	*	*Xtremolo	*	*Xtremolo	*	*	*
8D\L	.	8a\L	.	8cc\	.	16ccc\LL)	.
.	.	.	.	.	.	16aa\	.
8D\	.	8a\	.	8ccL 8d/	.	16ff#X\	.
.	.	.	.	.	.	16dd\	.
8D\J	.	8f#X\J	.	8ccJ 8d/	.	16cc\	.
.	.	.	.	.	.	16a\JJ	.
*Xtremolo	*	*	*	*	*	*	*
=49	=49	=49	=49	=49	=49	=49	=49
8GG/L	.	4g\	.	4b- 4d/	.	4g/	.
16FF#X/L	.	.	.	.	.	.	.
16GG/	.	.	.	.	.	.	.
16BB-X/	.	8r	.	8r	.	8r	.
16D/JJ	.	.	.	.	.	.	.
8G\L	.	[>4.B-X/	.	[>4.gg\	.	8g/L	.
8D\	.	.	.	.	.	16f#X/L	.
.	.	.	.	.	.	16g/	.
8BB-\J	.	.	.	.	.	16b-/	.
.	.	.	.	.	.	16dd/JJ	.
=50	=50	=50	=50	=50	=50	=50	=50
2.GG/	.	2.B-/]	.	8gg\L]	.	4dd\	.
.	.	.	.	(>8b-\	.	.	.
.	.	.	.	8cc\J	.	8r	.
.	.	.	.	8dd\L	.	[>4.ddd\	fz
.	.	.	.	8b-\)	.	.	.
.	.	.	.	[>8g\J	.	.	.
=51	=51	=51	=51	=51	=51	=51	=51
8AA/L	.	4A/	.	(>4g/]	.	4ddd\]	.
16GG#X/L	.	.	.	.	.	.	.
16AA/	.	.	.	.	.	.	.
16C/	.	8r	.	8f#X/	.	8r	.
16F#X/JJ	.	.	.	.	.	.	.
!	!	!	!	!LO:TX:a:t=P:W źródle łuk kończy się za nutą:problem	!	!	!
8A/L	.	[>4.a\	fz	4.f#/)	.	8dd\L	.
8F#/	.	.	.	.	.	16cc#X\L	.
.	.	.	.	.	.	16dd\	.
8C/J	.	.	.	.	.	16ff#X\	.
.	.	.	.	.	.	16aa\JJ	.
=52	=52	=52	=52	=52	=52	=52	=52
2.AA/	.	8a\L]	.	8dd'>\L	.	(>2.ccc\	.
.	.	8f#X\	.	(>16cc#X\L	.	.	.
.	.	.	.	16dd\	.	.	.
.	.	8g\J	.	16ee-X\	.	.	.
.	.	.	.	16dd\JJ	.	.	.
!	!	!	!	!LO:N:vis=4	!	!	!
.	.	8a\L	.	[>4.dd\	.	.	.
.	.	8f#\	.	.	.	.	.
.	.	8d\J	.	.	.	.	.
=53	=53	=53	=53	=53	=53	=53	=53
8BB-/L	.	4.g\	.	4.dd\])	.	4bb-\)	.
(<16AA/L	.	.	.	.	.	.	.
16BB-/	.	.	.	.	.	.	.
16C/	.	.	.	.	.	8r	.
16BB-/JJ)	.	.	.	.	.	.	.
4.BB-/	.	4r	.	(<8g/L	.	[>4.gg\	.
.	.	.	.	16f#X/L	.	.	.
.	.	.	.	16g/	.	.	.
.	.	8r	.	16a/	.	.	.
.	.	.	.	16g/JJ	.	.	.
!!LO:LB:g=original
=54	=54	=54	=54	=54	=54	=54	=54
!	!	!	!	!LO:TX:t=P:problem:w źródle brak zakończenia łuku	!	!	!
8BBn/L	.	(>2.d\	.	[>2.g/)	.	4.gg\_>	.
16AA#X/L	.	.	.	.	.	.	.
16BB/	.	.	.	.	.	.	.
16C/	.	.	.	.	.	.	.
16BB/JJ	.	.	.	.	.	.	.
4.BB/	.	.	.	.	.	8gg\L]	.
.	.	.	.	.	.	(>16ff#X\L	.
.	.	.	.	.	.	16gg\	.
.	.	.	.	.	.	16aa\	.
.	.	.	.	.	.	16ffn\JJ	.
=55	=55	=55	=55	=55	=55	=55	=55
[<2.C/	.	8c\L)	.	4.g/]	.	4ee\)	.
.	.	16Bn\L	.	.	.	.	.
.	.	16c\	.	.	.	.	.
.	.	16e\	.	.	.	8r	.
.	.	16g\JJ	.	.	.	.	.
!	!	!	!	!LO:TX:t=P:problem:w źródle dodatkowa cauda bez główki nuty	!	!	!
.	.	[>4.cc\	.	8c/L	.	[>4.ccc\	fz
.	.	.	.	16Bn/L	.	.	.
.	.	.	.	16c/	.	.	.
.	.	.	.	16e/	.	.	.
.	.	.	.	16g/JJ	.	.	.
=56	=56	=56	=56	=56	=56	=56	=56
2.C/_<	.	8cc\L]	.	[>4.cc\	.	8ccc\L]	.
.	.	(>8e\	.	.	.	(>8gg\	.
.	.	8f\J	.	.	.	8aa\J	.
!	!	!	!	!	!	!LO:TX:b:Bi:t=dimi_:problem:dynamics with extention lines	!
!	!	!	!	!	!	!	!LO:HP:b:Bi:t=dimi:ext=ud
!	!	!LO:TX:b:Bi:t=dimi_:problem:dynamics with extention lines	!	!	!	!	!
!	!	!	!LO:HP:b:Bi:t=dimi:ext=ud	!	!	!	!
!	!	!	!	!LO:TX:b:Bi:t=dimi_:problem:dynamics with extention lines	!	!	!
!	!	!	!	!	!LO:HP:b:Bi:t=dimi:ext=ud	!	!
.	.	4g\	>	4cc\]	>	8bb-\L	>
.	.	.	.	.	.	8ee\)	.
.	.	8b-\)	]]	(>8dd-X\	]]	(>[>8gg\J	]]
=57	=57	=57	=57	=57	=57	=57	=57
2.C/_<	.	(>4a\	.	4.cc\	.	8gg\L]	.
.	.	.	.	.	.	8ff\	.
.	.	8g\	.	.	.	[>8ee\J	.
.	.	4f\	.	4a/	.	8ee\L]	.
.	.	.	.	.	.	8dd\	.
.	.	8e\)	.	8g/	.	[>8cc\J	.
=58	=58	=58	=58	=58	=58	=58	=58
!	!	!	!	!LO:TX:a:t=P:W źródle łuk kończy się za nuta:problem	!	!	!
2.C/_<	.	2.d\	<[	2.f/)	<[	8cc\L])	<
.	.	.	.	.	.	(>8bn\	.
.	.	.	.	.	.	8a\J	.
.	.	.	.	.	.	8g\L	.
.	.	.	.	.	.	&(<16qqb/	.
.	.	.	.	.	.	8a\&)	.
.	.	.	.	.	.	8g\J	[[
=59	=59	=59	=59	=59	=59	=59	=59
8C/L]	.	[>2.c\	f	[>2.e/	f	4cc\)	f
16BBn/L	.	.	.	.	.	.	.
16C/	.	.	.	.	.	.	.
16E/	.	.	.	.	.	8r	.
16G/JJ	.	.	.	.	.	.	.
4.c\	.	.	.	.	.	8cc\L	.
.	.	.	.	.	.	16bn\L	.
.	.	.	.	.	.	16cc\	.
.	.	.	.	.	.	16ee\	.
.	.	.	.	.	.	16gg\JJ	.
=60	=60	=60	=60	=60	=60	=60	=60
[<2.C/	.	8c\L]	.	8e/L]	.	[>4.ccc\	.
.	.	(>8e\	.	(>8g/	.	.	.
.	.	8f\J	.	8a/J	.	.	.
.	.	8g\L	.	8b-\L	.	4ccc\]	.
.	.	8a\	.	8cc\	.	.	.
.	.	8b-\J	.	8dd-X\J)	.	(>8ee\	.
=61	=61	=61	=61	=61	=61	=61	=61
2.C/_<	.	4a\)	.	(>4cc^<\	.	8gg\L	.
.	.	.	.	.	.	8ff\	.
!	!	!	!LO:HP:b:Bi:t=dim&colon;	!	!	!	!LO:HP:b:Bi:t=dimi
.	.	(>8g\	>	8b-\	>	[>8ee\J	>
.	.	4f\	.	4a^</	.	8ee\L]	.
.	.	.	.	.	.	8dd\	.
.	.	8e\	.	8g/	.	[>8cc\J	.
=62	=62	=62	=62	=62	=62	=62	=62
!LO:TX:t=P:problem:w źródle brak fragmentu ligatury	!	!	!	!	!	!	!
2.C/_<	.	2.f\	.	2.a-X/	.	8cc\L])	.
.	.	.	.	.	.	(>8bn\	.
.	.	.	.	.	.	8cc\J	.
.	.	.	.	.	.	8dd\L	.
.	.	.	.	.	.	8ee\	.
.	.	.	.	.	.	8dd\J	.
!!LO:LB:g=original
=63	=63	=63	=63	=63	=63	=63	=63
!	!	!	!	!	!	!LO:TX:t=P:problem:w źródle brak zakończenia łuku	!
!	!	!LO:TX:t=P:problem:w źródle brak zakończenia łuku	!	!LO:TX:t=P:problem:w źródle brak zakończenia łuku	!	!	!
4C/]	.	4e\)	p	4g/)	p	8cc'>\L)	p
.	.	.	.	.	.	(>16bn\L	.
.	.	.	.	.	.	16cc\	.
8r	.	8r	.	8r	.	16dd\	.
.	.	.	.	.	.	16cc\JJ	.
!LO:TX:b:Bi:t=pizz&colon;	!	!LO:TX:b:Bi:t=pizz&colon;	!	!LO:TX:b:Bi:t=pizz&colon;	!	!	!
4C/	.	4e\	.	4g 4B-/	.	8ee'>\L)	.
.	.	.	.	.	.	(>16dd#X\L	.
.	.	.	.	.	.	16ee\	.
8r	.	8r	.	8r	.	16ff\	.
.	.	.	.	.	.	16ee\JJ	.
=64	=64	=64	=64	=64	=64	=64	=64
4C/	.	4e\	.	4g 4B-/	.	8gg'>\L)	.
.	.	.	.	.	.	(>16ff#X\L	.
.	.	.	.	.	.	16gg\	.
8r	.	8r	.	8r	.	16aa\	.
.	.	.	.	.	.	16gg\JJ)	.
4r	.	4r	.	4r	.	8bb-'>\L	.
.	.	.	.	.	.	(>8aa\	.
8r	.	8r	.	8r	.	8gg\J	.
=65	=65	=65	=65	=65	=65	=65	=65
2.r	.	2.r	.	2.r	.	8ff\L	.
.	.	.	.	.	.	8ee\	.
.	.	.	.	.	.	8dd\J	.
.	.	.	.	.	.	8cc\L	.
.	.	.	.	.	.	8b-\	.
.	.	.	.	.	.	8g\J)	.
=66	=66	=66	=66	=66	=66	=66	=66
2.r	.	2.r	.	2.r	.	(>8e/L	<
!	!	!	!	!	!	!LO:SIC:v:s=8Bn/	!
.	.	.	.	.	.	8B-/	.
.	.	.	.	.	.	8c#X/J	.
.	.	.	.	.	.	8d/L	[[
!	!	!	!	!	!	!LO:N:vis=8.	!
.	.	.	.	.	.	8d#X/	>
.	.	.	.	.	.	8e/J	]]
=67	=67	=67	=67	=67	=67	=67	=67
*	*	*tremolo	*	*tremolo	*	*	*
!	!	!	!	!LO:TX:t=P:problem:w źródle łuk i 6 kropek nad tremolo	!	!	!
!LO:TX:b:Bi:t=arco:rj	!	!LO:TX:b:Bi:t=arco:rj	!	!LO:TX:b:Bi:t=arco:rj	!	!	!
!	!LO:DY:a:rj	!	!	!	!	!	!
8FF/L	p	8c/L	.	(>8fL 8A/	.	4f/)	.
(<16DD/L	.	8c/	.	8f 8A/	.	.	.
!LO:TX:a:Bi:t=e delicato	!	!	!	!	!	!	!
16FF/	.	.	.	.	.	.	.
16GG/	.	8c/	.	8f 8A/	.	8r	.
16FF/JJ	.	.	.	.	.	.	.
8AAL 8FF/)	.	8c/	.	8f 8A/	.	4r	.
(>16GG#X/L	.	8c/	.	8f 8A/	.	.	.
16AA/	.	.	.	.	.	.	.
16BB-/	.	8c/J	.	8fJ 8A/)	.	8r	.
16AA/JJ	.	.	.	.	.	.	.
=68	=68	=68	=68	=68	=68	=68	=68
*	*	*rep	*	*rep	*	*	*
!	!	!	!	!LO:TX:t=P:problem:w źródle łuk i 6 kropek nad tremolo	!	!	!
4.C'>\)	.	8c/L	.	(>8fL 8A/	.	4r	.
.	.	8c/	.	8f 8A/	.	.	.
!	!	!	!	!	!	!LO:TX:b:Bi:t=dol&colon;:rj	!
.	.	8c/	.	8f 8A/	.	8r	.
4r	.	8c/	.	8f 8A/	.	[>4.aa^<\	.
.	.	8c/	.	8f 8A/	.	.	.
8r	.	8c/J	.	8fJ 8A/)	.	.	.
*	*	*Xrep	*	*Xrep	*	*	*
=69	=69	=69	=69	=69	=69	=69	=69
*	*	*rep	*	*rep	*	*	*
!	!	!	!	!LO:TX:t=P:problem:w źródle łuk i 6 kropek nad tremolo	!	!	!
2.r	.	8c/L	.	(>8fL 8A/	.	8aa\L]	.
.	.	8c/	.	8f 8A/	.	(>8cc\	.
.	.	8c/	.	8f 8A/	.	8ee\J	.
.	.	8c/	.	8f 8A/	.	8ff\L	.
.	.	8c/	.	8f 8A/	.	8a\	.
.	.	8c/J	.	8fJ 8A/)	.	8b-\J	.
*	*	*Xrep	*	*Xrep	*	*	*
=70	=70	=70	=70	=70	=70	=70	=70
*	*	*rep	*	*rep	*	*	*
!	!	!	!	!LO:TX:t=P:problem:w źródle łuk i 6 kropek nad tremolo	!	!	!
!LO:N:vis=2	!	!	!	!	!	!	!
2.r	.	8c/L	.	(>8fL 8A/	.	8cc/L)	.
.	.	.	.	.	.	(<8qg/	.
.	.	8c/	.	8f 8A/	.	8f/	.
.	.	8c/	.	8f 8A/	.	8e/J	.
.	.	8c/	.	8f 8A/	.	8f/L	.
.	.	8c/	.	8f 8A/	.	8dd/	.
.	.	8c/J	.	8fJ 8A/)	.	8cc/J)	.
*	*	*Xrep	*	*Xrep	*	*	*
=71	=71	=71	=71	=71	=71	=71	=71
.	.	.	.	.	.	(<8qcc/	.
8DD/L	.	8c/L	.	8gL 8B-/	.	4.g/)	.
(<16DD#X/L	.	8c/	.	8g 8B-/	.	.	.
16EE/	.	.	.	.	.	.	.
16FF/	.	8c/	.	8g 8B-/	.	.	.
16EE/JJ	.	.	.	.	.	.	.
8CL 8FF/)	.	8c/	.	8g 8B-/	.	4r	.
(<16BBn/L	.	8c/	.	8g 8B-/	.	.	.
16C/	.	.	.	.	.	.	.
16D/	.	8c/J	.	8gJ 8B-/	.	8r	.
16C/JJ	.	.	.	.	.	.	.
!!LO:LB:g=original
=72	=72	=72	=72	=72	=72	=72	=72
!LO:TX:a:t=P:w źródle brak zakończenia łuku:problem	!	!	!	!	!	!	!
4.G\)	.	8c/L	.	8gL 8B-/	.	4r	.
.	.	8c/	.	8g 8B-/	.	.	.
.	.	8c/	.	8g 8B-/	.	8r	.
4r	.	8c/	.	8g 8B-/	.	(>[>4.bb-^<\	.
.	.	8c/	.	8g 8B-/	.	.	.
8r	.	8c/J	.	8gJ 8B-/	.	.	.
=73	=73	=73	=73	=73	=73	=73	=73
*	*	*rep	*	*rep	*	*	*
2.r	.	8c/L	.	8gL 8B-/	.	8bb-\L]	.
.	.	8c/	.	8g 8B-/	.	8gg\	.
.	.	8c/	.	8g 8B-/	.	8ee\J	.
.	.	8c/	.	8g 8B-/	.	8cc/L	.
.	.	8c/	.	8g 8B-/	.	8b-/	.
.	.	8c/J	.	8gJ 8B-/	.	8g/J)	.
*	*	*Xrep	*	*Xrep	*	*	*
=74	=74	=74	=74	=74	=74	=74	=74
*	*	*rep	*	*rep	*	*	*
2.r	.	8c/L	.	8gL 8B-/	.	(>8e/L	.
.	.	8c/	.	8g 8B-/	.	8g/	.
.	.	8c/	.	8g 8B-/	.	8b-/J	.
.	.	8c/	.	8g 8B-/	.	8b-\L	.
.	.	8c/	.	8g 8B-/	.	8dd\	.
.	.	8c/J	.	8gJ 8B-/	.	8cc\J)	.
*	*	*Xrep	*	*Xrep	*	*	*
=75	=75	=75	=75	=75	=75	=75	=75
*tremolo	*	*	*	*	*	*	*
!	!	!	!	!	!	!LO:TX:a:t=|:problem	!
8F\L	.	8c\L	.	8fL 8A/	.	8cc\L	.
8F\	.	8c\	.	8f 8A/	.	(>16bn\L	.
.	.	.	.	.	.	16cc\	.
8F\	.	8c\	.	8fJ 8A/	.	16dd\	.
.	.	.	.	.	.	16cc\JJ	.
8F\	.	8c\	.	8a/L	.	[>4.aa\	.
8F\	.	8c\	.	8a/	.	.	.
8F\J	.	8c\J	.	8a/J	.	.	.
=76	=76	=76	=76	=76	=76	=76	=76
8E\L	.	8c#X\L	.	8a/L	.	4aa\])	.
8E\	.	8c#\	.	8a/	.	.	.
8E\J	.	8c#\J	.	8a/	.	(>[>8gg\	.
8D\L	.	8d\L	.	8a/	.	4gg\]	.
8D\	.	8d\	.	8a/	.	.	.
8D\J	.	8d\J	.	8a/J	.	[>8ff\	.
=77	=77	=77	=77	=77	=77	=77	=77
8C/L	.	8e\L	.	8a/L	.	4ff\]	.
8C/	.	8e\	.	8a/	.	.	.
!	!	!	!	!	!	!LO:TX:b:Bi:t=cres_:problem:dynamics with extention lines	!
!	!	!	!	!	!	!	!LO:HP:b:Bi:t=cres:ext=ud
!	!	!	!	!LO:TX:b:Bi:t=cres_:problem:dynamics with extention lines	!	!	!
!	!	!	!	!	!LO:HP:b:Bi:t=cres:ext=ud	!	!
!	!	!LO:TX:b:Bi:t=cres_:problem:dynamics with extention lines	!	!	!	!	!
!	!	!	!LO:HP:b:Bi:t=cres:ext=ud	!	!	!	!
8C/J	.	8e\J	<	8a/J	<	[>8ee\	<
8BBn/L	.	8e\L	.	8g#X/L	.	4ee\]	.
8BB/	.	8e\	.	8g#/	.	.	.
8BB/J	.	8e\J	.	8g#/J	.	[>8dd\	.
=78	=78	=78	=78	=78	=78	=78	=78
8AA/L	.	8e\L	.	8a/L	.	4dd\])	.
8AA/	.	8e\	.	8a/	.	.	.
8AA/J	.	8e\J	.	8a/J	.	(>8cc\	.
8D\L	.	8d\L	.	8f/L	.	8bn\L	.
8D\	.	8d\	.	8f/	.	8dd\	.
8D\J	.	8d\J	[	8f/J	[	[>8ff\J	[
*Xtremolo	*	*Xtremolo	*	*Xtremolo	*	*	*
=79	=79	=79	=79	=79	=79	=79	=79
[>2.E\	.	4.c\	f	4.e/	f	8ff\L])	f
.	.	.	.	.	.	(>8ee\	.
.	.	.	.	.	.	8dd#X\J	.
!	!	!	!	!	!	!	!LO:HP:b:Bi:t=dimi
.	.	[<4.A/	>	[<4.c/	>	8ee\L	>
.	.	.	.	.	.	8a\	.
.	.	.	.	.	.	8cc\J	.
=80	=80	=80	=80	=80	=80	=80	=80
8E/L]	.	8A/L]	.	8c/L]	p	4.e/)	p
8AA/	.	8A/	p	8c/	.	.	.
8C/J	.	8A/J	.	8c/J	.	.	.
*	*	*tremolo	*	*tremolo	*	*	*
(>4.DD/	.	8Bn/L	.	8d/L	.	4.g#Xtt>/	.
.	.	8B/	.	8d/	.	.	.
.	.	8B/J	.	8d/J	.	.	.
*	*	*Xtremolo	*	*Xtremolo	*	*	*
.	.	.	.	.	.	16qqf#X/LL	.
.	.	.	.	.	.	16qqg#/JJ	.
!!LO:LB:g=original
=81	=81	=81	=81	=81	=81	=81	=81
!LO:TX:t=P:problem:w źródle brak zakończenia łuku	!	!	!	!	!	!	!
!	!	!LO:N:vis=4.	!	!	!	!	!
4AA/)	.	4A/	.	8c'</L	<	4a/	.
.	.	.	.	(<8a'</	.	.	.
8r	.	8r	.	8a'</J	.	8r	.
4r	.	4r	.	8a/L	.	4r	.
.	.	.	.	8g#X/	.	.	.
8r	.	8r	.	8a/J)	[	8r	.
=82	=82	=82	=82	=82	=82	=82	=82
!LO:DY:b:rj	!	!	!LO:DY:b:rj	!	!	!	!
(>2.C^>/	p	(<2.B-^</	p	(<8a/L	>	2.r	.
.	.	.	.	8gn/	.	.	.
.	.	.	.	8e/J	.	.	.
.	.	.	.	8c/L	]	.	.
.	.	.	.	16Bn/L	.	.	.
.	.	.	.	16c/	.	.	.
.	.	.	.	16d/	.	.	.
.	.	.	.	16e/JJ	.	.	.
=83	=83	=83	=83	=83	=83	=83	=83
4F\)	.	8A/L)	.	8f/L)	.	8cc'>\L	.
!	!	!	!	!	!	!LO:TX:b:Bi:t=Scherz&colon;	!
.	.	8c 8F/	.	8A/	.	(>16bn\L	.
.	.	.	.	.	.	16cc\	.
8r	.	8cJ 8F/	.	8A/J	.	16dd\	.
.	.	.	.	.	.	16cc\JJ	.
*	*	*tremolo	*	*tremolo	*	*	*
4r	.	8cL 8F/	.	8A/L	.	8ff'>\L)	.
.	.	8c 8F/	.	8A/	.	(>16ee\L	.
.	.	.	.	.	.	16ff\	.
8r	.	8cJ 8F/	.	8A/J	.	16gg\	.
.	.	.	.	.	.	16ff\JJ	.
=84	=84	=84	=84	=84	=84	=84	=84
4r	.	8cL 8F/	.	8fL 8A/	.	4.aa\)	.
.	.	8c 8F/	.	8f 8A/	.	.	.
8r	.	8c 8F/	.	8f 8A/	.	.	.
*clefG2	*	*	*	*	*	*	*
!LO:TX:b:Bi:t=dol&colon;	!	!	!	!	!	!	!
[>4.aa^>\	.	8c 8F/	.	8f 8A/	.	4r	.
.	.	8c 8F/	.	8f 8A/	.	.	.
.	.	8cJ 8F/	.	8fJ 8A/	.	8r	.
=85	=85	=85	=85	=85	=85	=85	=85
*	*	*rep	*	*	*	*	*
8aa\L]	.	8cL 8F/	.	8fL 8A/	.	2.r	.
(>8cc\	.	8c 8F/	.	8f 8A/	.	.	.
8ee\J	.	8c 8F/	.	8f 8A/	.	.	.
8ff\L	.	8c 8F/	.	8f 8A/	.	.	.
8a\	.	8c 8F/	.	8f 8A/	.	.	.
8b-\J	.	8cJ 8F/	.	8fJ 8A/	.	.	.
*	*	*Xrep	*	*	*	*	*
=86	=86	=86	=86	=86	=86	=86	=86
*	*	*rep	*	*	*	*	*
!	!	!	!	!	!	!LO:TX:a:t=P:problem with rendering:problem	!
8cc/L)	.	8cL 8F/	.	8fL 8A/	.	2.r	.
(<8qg/	.	.	.	.	.	.	.
(<8f/)	.	8c 8F/	.	8f 8A/	.	.	.
8e/J	.	8c 8F/	.	8f 8A/	.	.	.
8f/L	.	8c 8F/	.	8f 8A/	.	.	.
8dd/	.	8c 8F/	.	8f 8A/	.	.	.
8cc/J)	.	8cJ 8F/	.	8fJ 8A/	.	.	.
*	*	*Xrep	*	*	*	*	*
=87	=87	=87	=87	=87	=87	=87	=87
(<8qqcc/	.	.	.	.	.	.	.
4g/)	.	8cL 8E/	.	8gL 8B-/	.	8cc'>\L	.
.	.	8c 8E/	.	8g 8B-/	.	16bn\L	.
.	.	.	.	.	.	(>16cc\	.
8r	.	8c 8E/	.	8g 8B-/	.	16dd\	.
.	.	.	.	.	.	16cc\JJ	.
4r	.	8c 8E/	.	8g 8B-/	.	8gg'>\L)	.
.	.	8c 8E/	.	8g 8B-/	.	(>16ff#X\L	.
.	.	.	.	.	.	16gg\	.
8r	.	8cJ 8E/	.	8gJ 8B-/	.	16aa\	.
.	.	.	.	.	.	16gg\JJ	.
=88	=88	=88	=88	=88	=88	=88	=88
*	*	*rep	*	*rep	*	*	*
4r	.	8cL 8E/	.	8gL 8B-/	.	4.ccc'>\)	.
.	.	8c 8E/	.	8g 8B-/	.	.	.
8r	.	8c 8E/	.	8g 8B-/	.	.	.
(>[>4.bb-^<\	.	8c 8E/	.	8g 8B-/	.	4r	.
.	.	8c 8E/	.	8g 8B-/	.	.	.
.	.	8cJ 8E/	.	8gJ 8B-/	.	8r	.
*	*	*Xrep	*	*Xrep	*	*	*
=89	=89	=89	=89	=89	=89	=89	=89
*	*	*rep	*	*rep	*	*	*
8bb-\L]	.	8cL 8E/	.	8gL 8B-/	.	2.r	.
8gg\	.	8c 8E/	.	8g 8B-/	.	.	.
8ee\J	.	8c 8E/	.	8g 8B-/	.	.	.
8cc\L	.	8c 8E/	.	8g 8B-/	.	.	.
8b-\	.	8c 8E/	.	8g 8B-/	.	.	.
8g\J)	.	8cJ 8E/	.	8gJ 8B-/	.	.	.
*	*	*Xrep	*	*Xrep	*	*	*
=90	=90	=90	=90	=90	=90	=90	=90
*	*	*rep	*	*rep	*	*	*
(<8e/L	.	8cL 8E/	.	8gL 8B-/	.	4r	.
8g/	.	8c 8E/	.	8g 8B-/	.	.	.
8b-/J	.	8c 8E/	.	8g 8B-/	.	8r	.
8b-/L	.	8c 8E/	.	8g 8B-/	.	[>4.cc\	.
8dd/	.	8c 8E/	.	8g 8B-/	.	.	.
8cc/J)	.	8cJ 8E/	.	8gJ 8B-/	.	.	.
*	*	*Xrep	*	*Xrep	*	*	*
*	*	*Xtremolo	*	*Xtremolo	*	*	*
!!LO:PB:g=original
=91	=91	=91	=91	=91	=91	=91	=91
4cc\	.	4c 4E/	.	4f 4A/	.	8cc\L]	.
.	.	.	.	.	.	16bn\L	.
.	.	.	.	.	.	16cc\	.
8r	.	8r	.	8r	.	16dd\	.
.	.	.	.	.	.	16cc\JJ	.
*clefF4	*	*	*	*	*	*	*
8r	.	8r	.	8r	.	8aa\L	.
8c#X\L	.	8g\L	.	8b-\L	.	8ee\	.
[>8d\J	sf	[>8f\J	.	[>8a\J	sf	[>8ff\J	sf
=92	=92	=92	=92	=92	=92	=92	=92
8d\L]	.	8f\L]	.	8a/L]	.	8ff\L]	.
8A\	.	8e\	.	8g/	.	8cc#X\	.
[>8B-\J	sf	[>8d\J	sf	[<8f/J	sf	[>8dd\J	sf
8B-\L]	.	8d\L]	.	8f/L]	.	8dd\L]	.
8F#X\	.	8c\	.	8e-X/	.	8a\	.
[>8G\J	sf	[>8B-\J	sf	[<8d/J	sf	[>8b-\J	sf
=93	=93	=93	=93	=93	=93	=93	=93
4.G\]	.	2.B-/_<	<	4.d/]	<	8b-/L]	<
.	.	.	.	.	.	8g/	.
.	.	.	.	.	.	[<8b-/J	.
!	!	!	!	!LO:N:vis=4	!	!	!
4.F\	.	.	.	4.d-X/	.	8b-/L]	.
.	.	.	.	.	.	8g/	.
.	.	.	.	.	.	[<8b-/J	[[
=94	=94	=94	=94	=94	=94	=94	=94
2.E\	.	(>2.B-/]	[	[<2.c/	[	8b-/L]	.
.	.	.	.	.	.	(>16a/L	.
.	.	.	.	.	.	16g/	.
.	.	.	.	.	.	16f#X/	.
.	.	.	.	.	.	16g/JJ	.
.	.	.	.	.	.	16a\LL	.
.	.	.	.	.	.	16b-\	.
.	.	.	.	.	.	16bn\	.
.	.	.	.	.	.	16cc\	.
.	.	.	.	.	.	16dd\	.
.	.	.	.	.	.	16cc\JJ	.
=95	=95	=95	=95	=95	=95	=95	=95
4.F\	.	8A/)	f	8c/]	f	4.cc\)	f
.	.	(>16e\LL	<	(>16ee\LL	<	.	.
.	.	16f\	.	16ff\	.	.	.
.	.	16g\	.	16gg\	.	.	.
.	.	16f\JJ)	[	16ff\JJ)	[	.	.
4.E-X\	fz	8r	<	8r	<	4.aa\	fz
.	.	(>16e\LL	.	(>16ee\LL	.	.	.
.	.	16f\	.	16ff\	.	.	.
.	.	16g\	.	16gg\	.	.	.
.	.	16f\JJ)	[	16ff\JJ)	[	.	.
=96	=96	=96	=96	=96	=96	=96	=96
4.D\	fz	8r	<	8r	<	4.bb-\	fz
.	.	(>16e\LL	.	(>16ee\LL	.	.	.
.	.	16f\	.	16ff\	.	.	.
.	.	16g\	.	16gg\	.	.	.
.	.	16f\JJ)	[	16ff\JJ)	[	.	.
4.D-X\	fz	8r	<	8r	<	4.bbn\	fz
.	.	(>16e\LL	.	(>16ee\LL	.	.	.
.	.	16f\	.	16ff\	.	.	.
.	.	16a-X\	.	16aa-X\	.	.	.
.	.	16f\JJ)	[	16ff\JJ)	[	.	.
=97	=97	=97	=97	=97	=97	=97	=97
[<2.C/	f	(>2.f\	f	(>2.a/	f	(>8ccc\L	f
.	.	.	.	.	.	16bbn\L	.
.	.	.	.	.	.	16ccc\	.
.	.	.	.	.	.	16ddd\	.
.	.	.	.	.	.	16ccc\JJ	.
.	.	.	.	.	.	16bb-X\LL	.
.	.	.	.	.	.	16aa\	.
.	.	.	.	.	.	16gg\	.
.	.	.	.	.	.	16ff'>\	.
.	.	.	.	.	.	16ee\)	.
.	.	.	.	.	.	16dd\JJ	.
=98	=98	=98	=98	=98	=98	=98	=98
!	!	!	!	!LO:TX:a:t=P:W źródle łuk kończy się za nutą:problem	!	!	!
!	!	!	!	!	!	!LO:TX:b:Bi:t=dim_:problem:dynamics with extention lines	!
!	!	!	!	!	!	!	!LO:HP:b:Bi:t=dim:ext=ud
!	!	!LO:TX:b:Bi:t=dim_:problem:dynamics with extention lines	!	!	!	!	!
!	!	!	!LO:HP:b:Bi:t=dim:ext=ud	!	!	!	!
!	!	!	!	!	!LO:HP:b:Bi:t=dim&colon;	!	!
2.C/]	.	2.e\	>	2.b-/)	>	(>16cc\LL	>
.	.	.	.	.	.	16dd\	.
.	.	.	.	.	.	16cc\	.
.	.	.	.	.	.	16bn\	.
.	.	.	.	.	.	16cc\	]]
.	.	.	.	.	.	16cc#X\JJ	.
.	.	.	]]	.	.	16ee\LL	.
.	.	.	.	.	.	16dd\	.
.	.	.	.	.	.	16ccn\	.
.	.	.	.	.	.	16b-X\	.
.	.	.	.	.	.	16a\	.
.	.	.	.	.	.	16g\JJ)	.
!!LO:LB:g=original
=99	=99	=99	=99	=99	=99	=99	=99
8FF/L	.	4.f\	p	(>2.a/	p	4f/	p
(<16EE/L	.	.	.	.	.	.	.
16FF/	.	.	.	.	.	.	.
16GG/	.	.	.	.	.	8r	.
16FF/JJ)	.	.	.	.	.	.	.
!	!	!	!	!	!	!LO:TX:b:Bi:t=dol	!
[>4.F\	.	4.e-X\	.	.	.	(>[>4.fff\	.
=100	=100	=100	=100	=100	=100	=100	=100
2.F\_>	.	4.d\	.	2.b-/	.	8fff\L]	.
.	.	.	.	.	.	8ddd\	.
.	.	.	.	.	.	[>8bb-\J	.
.	.	4.e\)	.	.	.	8bb-\L]	.
.	.	.	.	.	.	8aa\	.
.	.	.	.	.	.	8gg\J)	.
=101	=101	=101	=101	=101	=101	=101	=101
!LO:TX:t=P:problem:mixed beam	!	!	!	!	!	!	!
8F\L]	.	(>4.f\	.	2.a/	.	(>[>2.ff\	.
(>16EE/L	.	.	.	.	.	.	.
16FF/	.	.	.	.	.	.	.
16GG/	.	.	.	.	.	.	.
16FF/JJ	.	.	.	.	.	.	.
[>4.F\)	.	8e-X\L	.	.	.	.	.
.	.	16d\L	.	.	.	.	.
.	.	16e-\	.	.	.	.	.
.	.	16f\	.	.	.	.	.
.	.	16e-\JJ	.	.	.	.	.
=102	=102	=102	=102	=102	=102	=102	=102
2.F\_>	.	4.d\	.	(<4.b-/)	.	8ff\L]	.
.	.	.	.	.	.	8dd\	.
.	.	.	.	.	.	[>8b-\J	.
.	.	8d-X\L	.	8en/L	.	8b-/L]	.
.	.	8c\	.	8f/	.	8a/	.
.	.	8B-\J	.	8d-X/J)	.	8g/J)	.
=103	=103	=103	=103	=103	=103	=103	=103
8F\L]	.	8A/L)	.	8c/L	.	8f/	.
8F\	.	8c/	.	8a 8f/	.	(>16b-X\LL	.
.	.	.	.	.	.	16cc\	.
8F\J	.	8c/J	.	8aJ 8f/	.	16dd\	.
.	.	.	.	.	.	16cc\JJ	.
*tremolo	*	*tremolo	*	*tremolo	*	*	*
8E\L	.	8c/L	.	8b-L 8g/	.	[>4.ccc\)	.
8E\	.	8c/	.	8b- 8g/	.	.	.
8E\J	.	8c/J	.	8b-J 8g/	.	.	.
*	*	*Xtremolo	*	*	*	*	*
=104	=104	=104	=104	=104	=104	=104	=104
8F\L	.	8c/L	.	8aL 8f/	.	8ccc\L]	.
8F\	.	(<16Bn/L	.	8a 8f/	.	(>8aa\	.
.	.	16c/	.	.	.	.	.
8F\J	.	16d/	.	8aJ 8f/	.	8ff\J	.
.	.	16c/JJ)	.	.	.	.	.
*Xtremolo	*	*tremolo	*	*	*	*	*
!	!	!	!	!LO:TX:t=P:problem:w źródle tremolo bez kropki	!	!	!
8C/L	.	8c/L	.	8b-L 8g/	.	4.eett>\	.
16BBn/L	.	8c/	.	8b- 8g/	.	.	.
16C/	.	.	.	.	.	.	.
16D/	.	8c/J	.	8b-J 8g/	.	.	.
16C/JJ	.	.	.	.	.	.	.
.	.	.	.	.	.	16qqdd/LL	.
.	.	.	.	.	.	16qqee/JJ)	.
=105	=105	=105	=105	=105	=105	=105	=105
*tremolo	*	*	*	*	*	*	*
8F\L	.	8c/L	.	8aL 8f/	.	8ff\L	.
8F\	.	8c/	.	8a 8f/	.	(>16bn\L	.
.	.	.	.	.	.	16cc\	.
8F\J	.	8c/	.	8aJ 8f/	.	16dd\	.
.	.	.	.	.	.	16cc\JJ	.
*	*	*	*	*Xtremolo	*	*	*
8E\L	.	8c/	.	8b-L 8g/	.	[>4.ccc\)	.
8E\	.	8c/	.	(<16a/L	.	.	.
.	.	.	.	16b-/	.	.	.
8E\J	.	8c/J	.	16cc/	.	.	.
.	.	.	.	16b-/JJ	.	.	.
*	*	*Xtremolo	*	*	*	*	*
=106	=106	=106	=106	=106	=106	=106	=106
8F\L	.	8c/L	.	8a/L)	.	(>8ccc\L]	.
8F\	.	(<16Bn/L	.	8a 8f/	.	8aa\	.
.	.	16c/	.	.	.	.	.
8F\J	.	16d/	.	8aJ 8f/	.	8ff\J	.
.	.	16c/JJ)	.	.	.	.	.
*Xtremolo	*	*tremolo	*	*tremolo	*	*	*
8C/L	.	8c/L	.	8b-L 8g/	.	4.eett>\	.
(<16BBn/L	.	8c/	.	8b- 8g/	.	.	.
16C/	.	.	.	.	.	.	.
16D/	.	8c/J	.	8b-J 8g/	.	.	.
16C/JJ)	.	.	.	.	.	.	.
*	*	*Xtremolo	*	*Xtremolo	*	*	*
.	.	.	.	.	.	16qqdd/LL	.
.	.	.	.	.	.	16qqee/JJ)	.
=107	=107	=107	=107	=107	=107	=107	=107
4F\	.	4c/	.	4a 4f/	.	4ff\	.
8r	.	8r	.	8r	.	8r	.
!	!	!LO:TX:b:Bi:t=con fuoco	!	!	!	!LO:TX:b:Bi:t=con fuoco	!
!	!	!	!LO:DY:b:rj	!	!	!	!
[>4.f\	.	[>4.f\	ff	[>4.ff\	ff	[>4.fff\	ff
=108	=108	=108	=108	=108	=108	=108	=108
8f\L]	.	8f\L]	.	8ff\L]	.	8fff\L]	.
8A\	.	8A\	.	8a\	.	8aa\	.
8B-\J	.	8B-\J	.	8b-\J	.	8bb-\J	.
8c\L	.	8c/L	.	8cc/L	.	8ccc\L	.
8F\	.	8F/	.	8f/	.	8ff\	.
8G\J	.	8G/J	.	8g/J	.	8gg\J	.
!!LO:LB:g=original
=109	=109	=109	=109	=109	=109	=109	=109
8A\L	.	8A/L	.	8a/L	.	8aa\L	.
8C\	.	8c/	.	8c/	.	8cc\	.
8E\J	.	8e/J	.	8e/J	.	8ee\J	.
8F/L	.	8f\L	.	8f/L	.	8ff\L	.
8AA/	.	8A\	.	8A/	.	8a\	.
!	!	!	!	!	!	!LO:TX:a:t=P:w źródle wykorzystanie podwójnej kreski taktowej jako oznaczenie początku pierwszej volty:problem:dotyczy wszystkich głosów	!
8BB-/J	.	8B-\J	.	8B-/J	.	8b-\J	.
=110||	=110||	=110||	=110||	=110||	=110||	=110||	=110||
!!LO:TX:a:B:t=1a
*>A1	*	*>A1	*	*>A1	*	*>A1	*
8C/L	.	8c\L	.	8c/L	.	8cc\L	.
8D/	.	8d\	.	8d/	.	8dd\	.
8E/J	.	8e\J	.	8e/J	.	8ee\J	.
8F\L	.	8f\L	.	8f/L	.	8ff\L	.
8G\	.	8g\	.	8g/	.	8gg\	.
8G#X\J	.	8g#X\J	.	8g#X/J	.	8gg#X\J	.
=111	=111	=111	=111	=111	=111	=111	=111
4A\	.	4a\	.	4a/	.	4aa\	.
8r	.	8r	.	8r	.	8r	.
4.AA;>/	.	4.g 4.A;>\	fz	4.ee 4.a;>\	fz	4.ccc#X;>\	fz
=112:|!	=112:|!	=112:|!	=112:|!	=112:|!	=112:|!	=112:|!	=112:|!
!!LO:TX:a:B:t=2da
*>A2	*	*>A2	*	*>A2	*	*>A2	*
8C\L	.	8c\L	.	8c/L	.	8cc\L	.
8D\	.	8d\	.	8d/	.	8dd\	.
8E\J	.	8e\J	.	8e/J	.	8ee\J	.
8F\L	.	8f\L	.	8f/L	.	8ff\L	.
8G\	.	8g\	.	8g/	.	8gg\	.
8A\J	.	8a\J	.	8a/J	.	8aa\J	.
=113	=113	=113	=113	=113	=113	=113	=113
!	!	!LO:TX:b:Bi:t=sempre:dur=3q:ext=s:problem:dynamics with extention lines [connected with forte]	!	!	!	!	!
!	!	!	!	!LO:TX:b:Bi:t=sempre:dur=3q:ext=s:problem:dynamics with extention lines [connected with forte]	!	!	!
!	!	!	!	!	!	!LO:TX:b:Bi:t=sempre:dur=3q:ext=s:problem:dynamics with extention lines [connected with forte]	!
8AA/L	.	8g\L	.	8cc#X\L	.	4.aa\	.
8BBn/	.	8f\	.	8dd\	.	.	.
8C#X/J	.	8e\J	.	8ee\J	.	.	.
!	!	!	!	!	!	!LO:TX:a:t=P:diminuendolike accent:problem	!
8D\L	.	8f\L	.	4.dd\	.	4.ddd^<\	.
8E\	.	8g\	.	.	.	.	.
8F\J	.	8a\J	.	.	.	.	.
=114	=114	=114	=114	=114	=114	=114	=114
*>B	*	*>B	*	*>B	*	*>B	*
!	!	!	!	!	!	!LO:TX:a:t=P:diminuendolike accent:problem	!
8C\L	.	8b-\L	f	8ee\L	f	4.ccc^<\	f
8D\	.	8a\	.	8ff\	.	.	.
8E\J	.	8g\J	.	8gg\J	.	.	.
!	!	!	!	!	!	!LO:TX:a:t=P:diminuendolike accent:problem	!
8F\L	.	8a\L	.	4.ff\	.	4.fff^<\	.
8G\	.	8g\	.	.	.	.	.
8A\J	.	8f\J	.	.	.	.	.
=115	=115	=115	=115	=115	=115	=115	=115
[>2.AA/	.	[<2.c/	.	[<2.f/	.	[>4.eee-X\	fz
.	.	.	.	.	.	8eee-\L]	.
.	.	.	.	.	.	8ccc\	.
.	.	.	.	.	.	8ddd\J	.
=116	=116	=116	=116	=116	=116	=116	=116
!	!	!	!	!	!	!LO:SIC:v:s=8eee-\L	!
2.AA/_<	.	2.c/_<	.	2.f/_<	.	8eee\L	.
.	.	.	.	.	.	8aa\	.
.	.	.	.	.	.	8ccc\J	.
.	.	.	.	.	.	8ee-X\L	.
.	.	.	.	.	.	8aa\	.
.	.	.	.	.	.	8cc\J	.
=117	=117	=117	=117	=117	=117	=117	=117
8AA/L]	.	8c/L]	.	8f/L]	.	8ee-X\L	.
8AA/	.	8c/	.	8f/	.	8a\	.
8AA/J	.	8c/J	.	8f/J	.	8cc\J	.
*tremolo	*	*tremolo	*	*tremolo	*	*	*
8AA/L	.	8c/L	.	8f/L	.	8e-X/L	.
8AA/	.	8c/	.	8f/	.	8a/	.
8AA/J	.	8c/J	.	8f/J	.	8c/J	.
=118	=118	=118	=118	=118	=118	=118	=118
8AA/L	.	8c/L	.	8f/L	.	8e-X/L	.
8AA/	.	8c/	.	8f/	.	8f/	.
8AA/	.	8c/	.	8f/	.	8a/J	.
8AA/	.	8c/	.	8f/	.	8cc\L	.
8AA/	.	8c/	.	8f/	.	8aa\	.
8AA/J	.	8c/J	.	8f/J	.	8ccc\J	.
*	*	*Xtremolo	*	*	*	*	*
=119	=119	=119	=119	=119	=119	=119	=119
8BB-/L	.	8B-\L	.	8f/L	.	4ddd\	.
8BB-/	.	8d\	.	8f/	.	.	.
8BB-/	.	8d\J	.	8f/	.	8r	.
*	*	*tremolo	*	*	*	*	*
8BB-/	.	8d\L	.	8f/	.	[>4.ddd\	fz
8BB-/	.	8d\	.	8f/	.	.	.
8BB-/J	.	8d\J	.	8f/J	.	.	.
!!LO:LB:g=original
=120	=120	=120	=120	=120	=120	=120	=120
8BB-/L	.	8d\L	.	8f/L	.	8ddd\L]	.
8BB-/	.	8d\	.	8f/	.	8bb-\	.
8BB-/	.	8d\	.	8f/	.	8ccc\J	.
8BB-/	.	8d\	.	8f/	.	8ddd\L	.
8BB-/	.	8d\	.	8f/	.	8ff\	.
8BB-/J	.	8d\J	.	8f/J	.	8aa\J	.
=121	=121	=121	=121	=121	=121	=121	=121
*rep	*	*rep	*	*rep	*	*	*
8BB-/L	.	8d\L	.	8f/L	.	8bb-\L	.
8BB-/	.	8d\	.	8f/	.	8dd\	.
8BB-/	.	8d\	.	8f/	.	8ee-X\J	.
8BB-/	.	8d\	.	8f/	.	8ff\L	.
8BB-/	.	8d\	.	8f/	.	8b-\	.
8BB-/J	.	8d\J	.	8f/J	.	8dd\J	.
*Xrep	*	*Xrep	*	*Xrep	*	*	*
=122	=122	=122	=122	=122	=122	=122	=122
*rep	*	*rep	*	*rep	*	*	*
8BB-/L	.	8d\L	.	8f/L	.	8f/L	.
8BB-/	.	8d\	.	8f/	.	8b-/	.
8BB-/	.	8d\	.	8f/	.	8dd/J	.
8BB-/	.	8d\	.	8f/	.	8ff\L	.
8BB-/	.	8d\	.	8f/	.	8bb-\	.
8BB-/J	.	8d\J	.	8f/J	.	8ddd\J	.
*Xrep	*	*Xrep	*	*Xrep	*	*	*
=123	=123	=123	=123	=123	=123	=123	=123
8AA/L	.	8dL 8c\	.	8f#X/L	.	4ddd\	.
8AA/	.	8d 8c\	.	8f#/	.	.	.
8AA/	.	8d 8c\	.	8f#/	.	8r	.
8AA/	.	8d 8c\	.	8f#/	.	[>4.ddd\	.
8AA/	.	8d 8c\	.	8f#/	.	.	.
8AA/J	.	8dJ 8c\	.	8f#/J	.	.	.
=124	=124	=124	=124	=124	=124	=124	=124
*rep	*	*rep	*	*	*	*	*
8AA/L	.	8dL 8c\	.	8f#X/L	.	8ddd\L]	.
8AA/	.	8d 8c\	.	8f#/	.	8aa\	.
8AA/	.	8d 8c\	.	8f#/	.	8bb-\J	.
8AA/	.	8d 8c\	.	8f#/	.	8ccc\L	.
8AA/	.	8d 8c\	.	8f#/	.	8ff#X\	.
8AA/J	.	8dJ 8c\	.	8f#/J	.	8gg\J	.
*Xrep	*	*Xrep	*	*	*	*	*
=125	=125	=125	=125	=125	=125	=125	=125
*rep	*	*rep	*	*	*	*	*
8AA/L	.	8dL 8c\	.	8f#X/L	.	8aa\L	.
8AA/	.	8d 8c\	.	8f#/	.	8dd\	.
8AA/	.	8d 8c\	.	8f#/	.	8ff#X\J	.
8AA/	.	8d 8c\	.	8f#/	.	8a/L	.
8AA/	.	8d 8c\	.	8f#/	.	8cc/	.
8AA/J	.	8dJ 8c\	.	8f#/J	.	8d/J	.
*Xrep	*	*Xrep	*	*	*	*	*
=126	=126	=126	=126	=126	=126	=126	=126
*rep	*	*rep	*	*rep	*	*	*
8AA/L	.	8dL 8c\	.	8f#X/L	.	8f#X/L	.
8AA/	.	8d 8c\	.	8f#/	.	8a/	.
8AA/	.	8d 8c\	.	8f#/	.	8dd/J	.
8AA/	.	8d 8c\	.	8f#/	.	8ff#X\L	.
8AA/	.	8d 8c\	.	8f#/	.	8aa\	.
8AA/J	.	8dJ 8c\	.	8f#/J	.	8ddd\J	.
*Xrep	*	*Xrep	*	*Xrep	*	*	*
*Xtremolo	*	*Xtremolo	*	*Xtremolo	*	*	*
=127	=127	=127	=127	=127	=127	=127	=127
8GG/L	.	4d 4B-\	.	4g/	.	4bb-\	.
(<16FF#X/L	.	.	.	.	.	.	.
16GG/	.	.	.	.	.	.	.
16AA/	.	8r	.	8r	.	8r	.
16GG/JJ)	.	.	.	.	.	.	.
8BB-/L	.	4r	.	4r	.	[>4.gg\	sf
(<16AA/L	.	.	.	.	.	.	.
16BB-/	.	.	.	.	.	.	.
16C/	.	8r	.	8r	.	.	.
16BB-/JJ	.	.	.	.	.	.	.
=128	=128	=128	=128	=128	=128	=128	=128
4.D/)	.	[>4.g\	.	2.r	.	8gg\L]	.
.	.	.	.	.	.	8b-\	.
.	.	.	.	.	.	8cc\J	.
4.BB-/	.	8g\L]	.	.	.	8dd\L	.
.	.	8B-\	.	.	.	8g\	.
.	.	8c\J	.	.	.	8a\J	.
=129	=129	=129	=129	=129	=129	=129	=129
4GG/	.	8d/L	.	2.r	.	4.b-/	.
.	.	8G/	.	.	.	.	.
8r	.	8A/J	.	.	.	.	.
4r	.	8B-/L	.	.	.	4.g/	.
.	.	8D/	.	.	.	.	.
8r	.	8G/J	.	.	.	.	.
=130	=130	=130	=130	=130	=130	=130	=130
2.r	.	8B-/L	.	2.r	.	8d/L	.
.	.	16A/L	.	.	.	8g/	.
.	.	16B-/	.	.	.	.	.
.	.	16c/	.	.	.	8b-/J	.
.	.	16B-/JJ	.	.	.	.	.
.	.	4G/	.	.	.	8dd\L	.
.	.	.	.	.	.	8gg\	.
.	.	8r	.	.	.	8bb-\J	.
!!LO:LB:g=original
=131	=131	=131	=131	=131	=131	=131	=131
*tremolo	*	*tremolo	*	*tremolo	*	*	*
8AA/L	.	8c#X\L	ff	8gL 8A/	ff	4.aa\	ff
8AA/	.	8c#\	.	8g 8A/	.	.	.
8AA/	.	8c#\	.	8g 8A/	.	.	.
!	!	!	!	!	!	!LO:TX:a:t=|:problem	!
8AA/	.	8c#\	.	8g 8A/	.	8eee\L	.
8AA/	.	8c#\	.	8g 8A/	.	(>16ddd#X\L	.
.	.	.	.	.	.	16eee\	.
8AA/J	.	8c#\J	.	8gJ 8A/	.	16fff\	.
.	.	.	.	.	.	16eee\JJ	.
=132	=132	=132	=132	=132	=132	=132	=132
*	*	*rep	*	*rep	*	*	*
8AA/L	.	8c#X\L	.	8gL 8A/	.	8ccc#X\L)	.
8AA/	.	8c#\	.	8g 8A/	.	(>16bb#X\L	.
.	.	.	.	.	.	16ccc#\	.
8AA/	.	8c#\	.	8g 8A/	.	16ddd\	.
.	.	.	.	.	.	16ccc#\JJ	.
!	!	!	!	!	!	!LO:TX:a:t=|:problem	!
8AA/	.	8c#\	.	8g 8A/	.	8aa\L)	.
8AA/	.	8c#\	.	8g 8A/	.	(>16gg#X\L	.
.	.	.	.	.	.	16aa\	.
8AA/J	.	8c#\J	.	8gJ 8A/	.	16bb-X\	.
.	.	.	.	.	.	16aa\JJ	.
*	*	*Xrep	*	*Xrep	*	*	*
=133	=133	=133	=133	=133	=133	=133	=133
*	*	*rep	*	*rep	*	*	*
!	!	!	!	!	!	!LO:TX:a:t=|:problem	!
8AA/L	.	8c#X\L	.	8gL 8A/	.	8gg\L)	.
8AA/	.	8c#\	.	8g 8A/	.	(>16ff#X\L	.
.	.	.	.	.	.	16gg\	.
8AA/	.	8c#\	.	8g 8A/	.	16bb-\	.
.	.	.	.	.	.	16aa\JJ	.
!	!	!	!	!	!	!LO:TX:a:t=|:problem	!
8AA/	.	8c#\	.	8g 8A/	.	8ee\L)	.
8AA/	.	8c#\	.	8g 8A/	.	(>16dd#X\L	.
.	.	.	.	.	.	16ee\	.
8AA/J	.	8c#\J	.	8gJ 8A/	.	16ffn\	.
.	.	.	.	.	.	16ee\JJ	.
*	*	*Xrep	*	*Xrep	*	*	*
=134	=134	=134	=134	=134	=134	=134	=134
*	*	*	*	*rep	*	*	*
!	!	!	!	!	!	!LO:TX:a:t=|:problem	!
8AA/L	.	8e\L	.	8gL 8A/	.	16cc#X\LL)	.
.	.	.	.	.	.	16dd'>\	.
8AA/	.	8e\	.	8g 8A/	.	16cc#'>\	.
.	.	.	.	.	.	16bn'>\	.
8AA/	.	8e\	.	8g 8A/	.	16cc#'>\	.
.	.	.	.	.	.	16dd'>\JJ	.
8AA/	.	8e\	.	8g 8A/	.	16ee'>\LL	.
.	.	.	.	.	.	16ff'>\	.
8AA/	.	8e\	.	8g 8A/	.	16gg'>\	.
.	.	.	.	.	.	16aa'>\	.
8AA/J	.	8e\J	.	8gJ 8A/	.	16bbn'>\	.
!	!	!	!	!	!	!LO:SIC:v:s=16ccc#'>\JJ	!
.	.	.	.	.	.	16ccc'>\JJ	.
*	*	*	*	*Xrep	*	*	*
*Xtremolo	*	*Xtremolo	*	*Xtremolo	*	*	*
=135	=135	=135	=135	=135	=135	=135	=135
8D\L	.	4d\	.	4f 4A/	.	4ddd\	.
(>16C#X\L	.	.	.	.	.	.	.
16D\	.	.	.	.	.	.	.
16E\	.	8r	.	8r	.	8r	.
16D\JJ	.	.	.	.	.	.	.
8F\L)	.	4r	.	4r	.	[>4.ddd\	fz
(>16E\L	.	.	.	.	.	.	.
16F\	.	.	.	.	.	.	.
16G\	.	8r	.	8r	.	.	.
16F\JJ	.	.	.	.	.	.	.
=136	=136	=136	=136	=136	=136	=136	=136
4.A\)	.	2.r	.	[>4.dd\	fz	8ddd\L]	.
.	.	.	.	.	.	8ff\	.
.	.	.	.	.	.	8gg\J	.
4.F\	.	.	.	8dd\L]	.	8aa\L	.
.	.	.	.	8f\	.	8dd\	.
.	.	.	.	8g\J	.	8ee\J	.
=137	=137	=137	=137	=137	=137	=137	=137
4D\	.	2.r	.	8a/L	.	4.ff\	.
.	.	.	.	8d/	.	.	.
8r	.	.	.	8e/J	.	.	.
4r	.	.	.	8f/L	.	4.dd\	.
.	.	.	.	8A/	.	.	.
8r	.	.	.	8d/J	.	.	.
=138	=138	=138	=138	=138	=138	=138	=138
2.r	.	2.r	.	8f/L	.	8a\L	.
.	.	.	.	(<16e/L	.	8dd\	.
.	.	.	.	16f/	.	.	.
.	.	.	.	16g/	.	8ff\J	.
.	.	.	.	16f/JJ	.	.	.
.	.	.	.	4d/)	.	8aa\L	.
.	.	.	.	.	.	8ddd\	.
.	.	.	.	8r	.	8fff\J	.
!!LO:PB:g=original
=139	=139	=139	=139	=139	=139	=139	=139
*tremolo	*	*tremolo	*	*tremolo	*	*	*
!	!	!	!	!	!	!LO:TX:a:t=|:problem	!
8E\L	.	8G#X/L	ff	8dL 8Bn/	ff	8eee\L	ff
8E\	.	8G#/	.	8d 8B/	.	(>16ccc#X\L	.
.	.	.	.	.	.	16ddd\	.
8E\	.	8G#/	.	8d 8B/	.	16eee\	.
.	.	.	.	.	.	16ddd\JJ	.
8E\	.	8G#/	.	8d 8B/	.	8bbn'>\L)	.
8E\	.	8G#/	.	8d 8B/	.	(>16aa#X\L	.
.	.	.	.	.	.	16bb\	.
8E\J	.	8G#/J	.	8dJ 8B/	.	16ccc#\	.
.	.	.	.	.	.	16bb\JJ	.
=140	=140	=140	=140	=140	=140	=140	=140
*rep	*	*rep	*	*rep	*	*	*
8E\L	.	8G#X/L	.	8dL 8Bn/	.	8gg#X\L)	.
8E\	.	8G#/	.	8d 8B/	.	(>16ff##X\L	.
.	.	.	.	.	.	16gg#\	.
8E\	.	8G#/	.	8d 8B/	.	16aa\	.
.	.	.	.	.	.	16gg#\JJ	.
8E\	.	8G#/	.	8d 8B/	.	8ee'>\L)	.
8E\	.	8G#/	.	8d 8B/	.	(>16dd#X\L	.
.	.	.	.	.	.	16ee\	.
8E\J	.	8G#/J	.	8dJ 8B/	.	16ffn\	.
.	.	.	.	.	.	16ee\JJ	.
*Xrep	*	*Xrep	*	*Xrep	*	*	*
=141	=141	=141	=141	=141	=141	=141	=141
*rep	*	*rep	*	*rep	*	*	*
8E\L	.	8G#X/L	.	8dL 8Bn/	.	8dd\L)	.
8E\	.	8G#/	.	8d 8B/	.	(>16cc#X\L	.
.	.	.	.	.	.	16dd\	.
8E\	.	8G#/	.	8d 8B/	.	16ee\	.
.	.	.	.	.	.	16dd\JJ	.
8E\	.	8G#/	.	8d 8B/	.	8bn\L)	.
8E\	.	8G#/	.	8d 8B/	.	(>16a#X\L	.
.	.	.	.	.	.	16b\	.
8E\J	.	8G#/J	.	8dJ 8B/	.	16ccn\	.
.	.	.	.	.	.	16b\JJ	.
*Xrep	*	*Xrep	*	*Xrep	*	*	*
=142	=142	=142	=142	=142	=142	=142	=142
*	*	*	*	*rep	*	*	*
8EE/L	.	8E/L	.	8dL 8Bn/	.	16g#X/LL)	.
.	.	.	.	.	.	16f#X/	.
8EE/	.	8E/	.	8d 8B/	.	16e/	.
.	.	.	.	.	.	16f#/	.
8EE/	.	8E/	.	8d 8B/	.	16g#/	.
.	.	.	.	.	.	16a/JJ	.
8EE/	.	8E/	.	8d 8B/	.	16bn\LL	.
.	.	.	.	.	.	16cc\	.
8EE/	.	8E/	.	8d 8B/	.	16dd\	.
.	.	.	.	.	.	16ee\	.
8EE/J	.	8E/J	.	8dJ 8B/	.	16ff#X\	.
.	.	.	.	.	.	16gg#X\JJ	.
*	*	*	*	*Xrep	*	*	*
*Xtremolo	*	*Xtremolo	*	*Xtremolo	*	*	*
=143	=143	=143	=143	=143	=143	=143	=143
4AA/	.	4E/	.	4c/	.	4aa\	.
8r	.	8r	.	8r	.	8r	.
4r	.	[>4.a\	fz >	4r	.	4r	.
8r	.	.	]]	8r	.	8r	.
=144	=144	=144	=144	=144	=144	=144	=144
2.r	.	8a\L]	.	2.ryy	.	2.r	.
.	.	8c'>\	p	.	.	.	.
.	.	8d'>\J	.	.	.	.	.
.	.	8e\L	.	.	.	.	.
.	.	8A'>\	.	.	.	.	.
.	.	8Bn'>\J	.	.	.	.	.
=145	=145	=145	=145	=145	=145	=145	=145
2.r	.	4c\	.	2.r	.	4r	.
.	.	8r	.	.	.	8r	.
.	.	4r	.	.	.	8r	.
.	.	.	.	.	.	8a/L	pp
.	.	8r	.	.	.	8bn/J	.
=146	=146	=146	=146	=146	=146	=146	=146
8r	.	2.ryy	.	4r	.	[>2.cc\	.
8C'</L	pp	.	.	.	.	.	.
8BBn'</J	.	.	.	8r	.	.	.
4AA/	.	.	.	8r	pp	.	.
.	.	.	.	8A'</L	.	.	.
8r	.	.	.	8Bn'</J	.	.	.
!!LO:LB:g=original
=147	=147	=147	=147	=147	=147	=147	=147
!	!	!	!	!	!	!LO:TX:a:t=P:w źródle brak fragmentu ligatury:problem	!
4r	.	4r	.	(>4.c/	.	4.cc\_>	.
8r	.	8r	.	.	.	.	.
(>4.G\	.	(<4.B-/	.	4.e/	.	8cc\L]	.
.	.	.	.	.	.	(>16bn\L	.
.	.	.	.	.	.	16cc\	.
.	.	.	.	.	.	16dd\	.
.	.	.	.	.	.	16cc\JJ	.
=148	=148	=148	=148	=148	=148	=148	=148
4F\)	.	4A/)	.	4f/)	.	4ff\)	.
8r	.	8r	.	8r	.	8r	.
4r	.	4r	.	[>4.ff\	sf	4r	.
8r	.	8r	.	.	.	8r	.
=149	=149	=149	=149	=149	=149	=149	=149
2.r	.	2.r	.	8ff\L]	.	2.r	.
.	.	.	.	8a\	p	.	.
.	.	.	.	8b-\J	.	.	.
.	.	.	.	8cc/L	.	.	.
.	.	.	.	8f/	.	.	.
.	.	.	.	8g/J	.	.	.
=150	=150	=150	=150	=150	=150	=150	=150
2.r	.	2.r	.	8a/L	.	2.r	.
.	.	.	.	8f/	.	.	.
.	.	.	.	[<8dd^</J	.	.	.
.	.	.	.	8dd/L]	.	.	.
.	.	.	.	8cc/	.	.	.
.	.	.	.	8b-/J	.	.	.
=151	=151	=151	=151	=151	=151	=151	=151
4r	.	2.r	.	(<8a/L	.	2.r	.
.	.	.	.	8g/	.	.	.
8r	.	.	.	[<8f/J)	.	.	.
[>4.d\	sf	.	.	8f/L]	.	.	.
.	.	.	.	8g/	.	.	.
.	.	.	.	8g#X/J	.	.	.
=152	=152	=152	=152	=152	=152	=152	=152
8d\L]	.	2.r	.	4.a/	.	2.r	.
8F\	p	.	.	.	.	.	.
8G\J	.	.	.	.	.	.	.
8A\L	.	.	.	4.f/	.	.	.
8D\	.	.	.	.	.	.	.
8E\J	.	.	.	.	.	.	.
=153	=153	=153	=153	=153	=153	=153	=153
8F\L	.	2.r	.	4.d/	.	2.r	.
8D\	.	.	.	.	.	.	.
[>8B-^<\J	.	.	.	.	.	.	.
8B-\L]	.	.	.	[>4.dd\	.	.	.
8A\	.	.	.	.	.	.	.
8G\J	.	.	.	.	.	.	.
=154	=154	=154	=154	=154	=154	=154	=154
4.F#Xtt>\	.	4r	.	8dd\L]	.	2.r	.
.	.	.	.	8cc\	.	.	.
.	.	8r	.	8a\J	.	.	.
16qqE/LL	.	.	.	.	.	.	.
16qqF#/JJ	.	.	.	.	.	.	.
8G\L	.	[>4.g\	sf	4b-\	.	.	.
8B-\	.	.	.	.	.	.	.
8G\J	.	.	.	8r	.	.	.
=155	=155	=155	=155	=155	=155	=155	=155
8E-X/L	.	8g\L]	.	2.r	.	2.r	.
8D/	.	8B-\	p	.	.	.	.
8C/J	.	8c\J	.	.	.	.	.
4BB-/	.	8d/L	.	.	.	.	.
.	.	8G/	.	.	.	.	.
8FF#X/	.	8A/J	.	.	.	.	.
=156	=156	=156	=156	=156	=156	=156	=156
!	!	!	!	!	!	!LO:TX:a:t=P:w źródle duży X za kreską taktową przed łamaniem systemu:problem	!
4.GG/	.	8B-/L	.	2.r	.	2.r	.
.	.	8G/	.	.	.	.	.
!	!	!LO:TX:a:t=P:diminuendolike accent:problem	!	!	!	!	!
.	.	[<8e-X^</J	.	.	.	.	.
4.AAtt/	.	8e-/L]	.	.	.	.	.
.	.	8d/	.	.	.	.	.
.	.	8c/J	.	.	.	.	.
16qqGG/LL	.	.	.	.	.	.	.
16qqAA/JJ	.	.	.	.	.	.	.
!!LO:LB:g=original
=157	=157	=157	=157	=157	=157	=157	=157
8BB-/L	<	8d\L	<	2.r	.	4r	.
8C/	.	8e-X\	.	.	.	.	.
8C#X/J	.	8en\J	.	.	.	8r	.
8D\L	.	8f\L	.	.	.	[>4.bb-\	sf
8E-X\	.	8g-X\	[	.	.	.	.
8En\J	[	8gn\J	.	.	.	.	.
=158	=158	=158	=158	=158	=158	=158	=158
(>4F\	f	(>4a-X\	f	2.r	.	8bb-\L]	.
!	!	!	!	!	!	!	!LO:DY:b:rj
.	.	.	.	.	.	8dd\	f
8E-X\)	.	8g\)	.	.	.	8ee-X\J	.
(<4D/	.	(>4f\	.	.	.	8ff\L	.
.	.	.	.	.	.	8bn\	.
8C/)	.	8e-X\)	.	.	.	8cc\J	.
=159	=159	=159	=159	=159	=159	=159	=159
2.BBn/	.	[>2.g\	.	(>2.dd\	f	8dd\L	.
.	.	.	.	.	.	8g\	.
.	.	.	.	.	.	8bn\J	.
.	.	.	.	.	.	8dd\L	.
.	.	.	.	.	.	8gg\	.
.	.	.	.	.	.	8ff\J	.
=160	=160	=160	=160	=160	=160	=160	=160
8C\L	.	4g\]	.	8cc\)	.	8ee-X\L	.
8D\	.	.	.	[<4g/	.	8bn\	.
[>8E-X\J	.	8r	.	.	.	[>8cc\J	.
8E-\L]	.	[>4.c\	.	4g/]	.	8cc\L]	.
8En\	.	.	.	.	.	8g\	.
[>8F\J	.	.	.	[<8f/	.	[>8a-X\J	.
=161	=161	=161	=161	=161	=161	=161	=161
8F\L]	.	2.c\_>	.	8f/]	.	8a-/L]	.
8G\	.	.	.	8r	.	8en/	.
[>8A-X\J	.	.	.	8r	.	[<8f/J	.
4.A-\]	.	.	.	4r	.	8f/]	.
.	.	.	.	.	.	(>4f#X^</	.
.	.	.	.	[<8e-X^>/	.	.	.
=162	=162	=162	=162	=162	=162	=162	=162
8G\L	.	2.c\_>	<	4.e-/_<	<	8g/	<
8F#X\	.	.	.	.	.	[<4an/	.
[>8Fn\J	.	.	.	.	.	.	.
8F\L]	.	.	.	8e-/L]	.	4.a/_<	.
8E\	.	.	.	8en/	.	.	.
8E-X\J	.	.	[	8f/J	[	.	[
=163	=163	=163	=163	=163	=163	=163	=163
2.D\	.	8c\L]	>	2.f#X/	>]	2.a/]	>]
.	.	(>8e-X\	.	.	.	.	.
.	.	8d\J	.	.	.	.	.
.	.	8c\L	.	.	.	.	.
.	.	8d\	]	.	.	.	.
.	.	8c\J	.	.	.	.	.
=164	=164	=164	=164	=164	=164	=164	=164
!	!	!LO:TX:t=P:problem:mixed beam	!	!	!	!LO:TX:t=P:problem:mixed beam	!
8GG/L	.	8B-/L)	f	8g/L	f	8g/L)	f
8AA/	.	8cc\	.	8a/	.	8ff#X\	.
[<8BB-/J	.	[>8b-\J	.	[<8g/J	.	[>8gg\J	.
8BB-/L]	.	8b-\L]	.	4.g/_<	.	8gg\L]	.
8BBn/	.	8f\	.	.	.	8dd\	.
[<8C/J	.	[>8e-X\J	.	.	.	[>8ee-X\J	.
=165	=165	=165	=165	=165	=165	=165	=165
8C/L]	.	8e-\L]	.	2.g/]	.	8ee-\L]	.
8D/	.	8d\	.	.	.	8bn\	.
8E-X/J	.	8c\J	.	.	.	[>8cc\J	.
4.En\	.	4.B-/	.	.	.	8cc\L]	.
.	.	.	.	.	.	8dd-X\	.
.	.	.	.	.	.	[>8cc\J	.
!!LO:LB:g=original
=166	=166	=166	=166	=166	=166	=166	=166
(>4F\	.	4A-X/	.	(>4a-X\	.	8cc\L]	.
.	.	.	.	.	.	8aa-X\	.
8G\)	.	8r	.	8b-\)	.	[>8een\J	.
(>4A-X\	.	8r	.	(>4.cc\	.	8ee\L]	.
.	.	8r	.	.	.	8ff\	.
8An\)	.	[>8f\	.	.	.	8ee-X\J	.
=167	=167	=167	=167	=167	=167	=167	=167
8B-\L	.	8f\L]	.	8b-\L)	.	8dd'>\L	.
8A'>\	sf	8f'>\	sf	8cc'>\	sf	8ee-X'>\	sf
8B-'>\J	.	8f'>\J	.	8b-'>\J	.	8dd'>\J	.
8A'>\L	.	8f'>\L	.	8cc'>\L	.	8ee-'>\L	.
8B-'>\	.	8f'>\	.	8b-'>\	.	8dd'>\	.
8A'>\J	.	8f'>\J	.	8cc'>\J	.	8ee-'>\J	.
=168	=168	=168	=168	=168	=168	=168	=168
8B-'>\L	.	8f'>\L	.	8b-'>\L	.	8dd\L	.
8d'>\	sf	8b-'>\	sf	8ff'>\	sf	8aa-X'>\	sf
8e-X'>\J	.	8b-'>\J	.	8ee-X'>\J	.	8gg'>\J	.
8d'>\L	.	8b-'>\L	.	8ff'>\L	.	8aa-'>\L	.
8e-'>\	.	8b-'>\	.	8ee-'>\	.	8gg'>\	.
8d'>\J	.	8b-'>\J	.	8ff'>\J	.	8aa-'>\J	.
=169	=169	=169	=169	=169	=169	=169	=169
8e-X'>\L	.	8b-'>\L	.	8ee-X'>\L	.	8gg'>\L	.
8Bn'>\	sf	8g'>\	sf	8dd'>\	sf	8ff'>\	sf
8c'>\J	.	8g'>\J	.	8cc'>\J	.	8een'>\J	.
8B'>\L	.	8g'>\L	.	8dd'>\L	.	8ff'>\L	.
8c'>\	.	8g'>\	.	8cc'>\	.	8ee'>\	.
8B'>\J	.	8g'>\J	.	8dd'>\J	.	8ff'>\J	.
=170	=170	=170	=170	=170	=170	=170	=170
8c'>\L	.	8g'>\L	.	8cc'>\L	.	8ee'>\L	.
8en'>\	.	8cc'>\	.	8gg'>\	.	8bb-'>\	sf
8f'>\J	.	8cc'>\J	.	8ff'>\J	.	8aa'>\J	.
8e'>\L	.	8cc'>\L	.	8gg'>\L	.	8bb-'>\L	.
8f'>\	.	8cc'>\	.	8ff'>\	.	8aa'>\	.
8e'>\J	.	8cc'>\J	.	8gg'>\J	.	8bb-'>\J	.
=171	=171	=171	=171	=171	=171	=171	=171
8f'>\L	.	8cc'>\L	.	8ff'>\L	.	8aa'>\L	.
!	!	!	!	!	!	!LO:TX:b:Bi:t=cres_:problem:dynamics with extention lines	!
!	!	!	!	!	!	!	!LO:HP:b:Bi:t=cres:ext=ud
!	!	!	!	!LO:TX:b:Bi:t=cres_:problem:dynamics with extention lines	!	!	!
!	!	!	!	!	!LO:HP:b:Bi:t=cres:ext=ud	!	!
!	!	!LO:TX:b:Bi:t=cres_:problem:dynamics with extention lines	!	!	!	!	!
!	!	!	!LO:HP:b:Bi:t=cres:ext=ud	!	!	!	!
8c#X'>\	.	8a'>\	<	8ee'>\	<	8gg'>\	<
8d'>\J	.	8a'>\J	.	8dd'>\J	.	8ff'>\J	.
8c#'>\L	.	8a'>\L	.	8ee'>\L	.	8gg'>\L	.
8d'>\	.	8a'>\	.	8dd'>\	.	8ff'>\	.
8c#'>\J	.	8a'>\J	.	8ee'>\J	.	8gg'>\J	.
=172	=172	=172	=172	=172	=172	=172	=172
8d'>\L	.	8a'>\L	.	8dd'>\L	.	8ff'>\L	.
8c#X'>\	.	8a'>\	.	8ee'>\	.	8gg'>\	.
8d'>\J	.	8a'>\J	.	8dd'>\J	.	8ff'>\J	.
8c#'>\L	.	8a'>\L	.	8ee'>\L	.	8gg'>\L	.
8d'>\	.	8a'>\	.	8dd'>\	.	8ff'>\	.
8c#'>\J	.	8a'>\J	[	8ee'>\J	[	8gg'>\J	[
=173	=173	=173	=173	=173	=173	=173	=173
8d\L	ff	4a\	.	4dd\	.	4ff\	.
8D\	.	.	.	.	.	.	.
8D\J	.	8r	.	8r	.	8r	.
4.D\	.	8r	.	8r	.	8r	.
!	!	!	!LO:DY:b:rj	!	!LO:DY:b:rj	!	!
.	.	8dd\L	ff	8ff\L	ff	8ddd\L	ff
.	.	8dd\J	.	8ff\J	.	8ddd\J	.
=174	=174	=174	=174	=174	=174	=174	=174
!LO:TX:t=P:problem:mixed beam	!	!	!	!	!	!	!
8B-\L	.	[>4.dd\	.	[>4.ff\	.	[>4.ddd\	.
8BB-/	.	.	.	.	.	.	.
8BB-/J	.	.	.	.	.	.	.
4.BB-/	.	8dd\L]	.	8ff\L]	.	8ddd\L]	.
.	.	8dd\	.	8ff\	.	8ddd\	.
.	.	8dd\J	.	8ff\J	.	8ddd\J	.
=175	=175	=175	=175	=175	=175	=175	=175
!LO:TX:t=P:problem:mixed beam	!	!	!	!	!	!	!
8A\L	.	[>4.dd\	.	[>4.ff\	.	[>4.ddd\	.
8AA/	.	.	.	.	.	.	.
8AA/J	.	.	.	.	.	.	.
!	!	!	!	!LO:TX:t=P:problem:mixed beam	!	!	!
4.AA/	.	8dd\L]	.	8ff\L]	.	8ddd\L]	.
.	.	8d\	.	8f/	.	8dd\	.
.	.	8d\J	.	8f/J	.	8dd\J	.
!!LO:LB:g=original
=176	=176	=176	=176	=176	=176	=176	=176
!LO:TX:t=P:problem:mixed beam	!	!	!	!	!	!	!
8G#X\L	.	[<4.d/	.	[<4.f/	.	[>4.dd\	.
8GG#X/	.	.	.	.	.	.	.
8GG#/J	.	.	.	.	.	.	.
!	!	!	!	!	!	!LO:TX:t=P:problem:mixed beam	!
4.GG#/	.	8d/L]	.	8f/L]	.	8dd\L]	.
.	.	8F/	.	8B-X/	.	8d/	.
.	.	8F/J	.	8B-/J	.	8d/J	.
=177	=177	=177	=177	=177	=177	=177	=177
8AA/L	f	8E/	f	8A/	f	4c#X/	f
(<16GG#X/L	p	16c#X\LL	p	16e/LL	p	.	.
16AA/	.	16c#\	.	16e/	.	.	.
16BB-/	.	16c#\	.	16e/	.	8r	.
16AA/JJ)	.	16c#\JJ	.	16e/JJ	.	.	.
*	*	*tremolo	*	*tremolo	*	*	*
!	!	!LO:TX:t=P:problem:w źródle tremolo bez kropki	!	!	!	!	!
[<4.AA/	.	16c#\LL	.	16e/LL	.	[>4.aa^<\	p
.	.	16c#\	.	16e/	.	.	.
.	.	16c#\	.	16e/	.	.	.
.	.	16c#\	.	16e/	.	.	.
.	.	16c#\	.	16e/	.	.	.
.	.	16c#\JJ	.	16e/JJ	.	.	.
=178	=178	=178	=178	=178	=178	=178	=178
2.AA/_<	.	16c#X\LL	.	16e/LL	.	8aa\L]	.
.	.	16c#\	.	16e/	.	.	.
.	.	16c#\	.	16e/	.	8cc#X\	.
.	.	16c#\	.	16e/	.	.	.
.	.	16c#\	.	16e/	.	8dd\J	.
.	.	16c#\	.	16e/	.	.	.
.	.	16c#\	.	16e/	.	8ee\L	.
.	.	16c#\	.	16e/	.	.	.
.	.	16c#\	.	16e/	.	8a\	.
.	.	16c#\	.	16e/	.	.	.
.	.	16c#\	.	16e/	.	8cc#\J	.
.	.	16c#\JJ	.	16e/JJ	.	.	.
=179	=179	=179	=179	=179	=179	=179	=179
*	*	*	*	*	*	*	*^
!	!	!	!	!LO:TX:b:Bi:t=cres_:problem:dynamics with extention lines	!	!	!	!
!	!	!	!	!	!LO:HP:b:Bi:t=cres:ext=ud	!	!	!
!	!	!LO:TX:b:Bi:t=cres_:problem:dynamics with extention lines	!	!	!	!	!	!
!	!	!	!LO:HP:b:Bi:t=cres:ext=ud	!	!	!	!	!
8AA/L]	.	16d\LL	<	16f/LL	<	4r	.	.
.	.	16d\	.	16f/	.	.	.	.
16GG#X/L	.	16d\	.	16f/	.	.	.	.
16AA/	.	16d\	.	16f/	.	.	.	.
16BB-/	.	16d\	.	16f/	.	8r	.	.
16AA/JJ	.	16d\	.	16f/	.	.	.	.
!	!	!	!	!	!	!LO:TX:b:Bi:t=cres_:problem:dynamics with extention lines	!	!
!	!	!	!	!	!	!	!LO:HP:b:Bi:t=cres:ext=ud	!
[<4.AA/	.	16d\	.	16f/	.	[>4.bb-\	<	sf
.	.	16d\	.	16f/	.	.	.	.
.	.	16d\	.	16f/	.	.	.	.
.	.	16d\	.	16f/	.	.	.	.
.	.	16d\	.	16f/	.	.	.	.
.	.	16d\JJ	.	16f/JJ	.	.	.	.
=180	=180	=180	=180	=180	=180	=180	=180	=180
*	*	*rep	*	*rep	*	*	*	*
2.AA/_<	.	16d\LL	.	16f/LL	.	8bb-\L]	.	.
.	.	16d\	.	16f/	.	.	.	.
.	.	16d\	.	16f/	.	8dd\	.	.
.	.	16d\	.	16f/	.	.	.	.
.	.	16d\	.	16f/	.	8ee-X\J	.	.
.	.	16d\	.	16f/	.	.	.	.
.	.	16d\	.	16f/	.	8ff\L	.	.
.	.	16d\	.	16f/	.	.	.	.
.	.	16d\	.	16f/	.	8b-\	.	.
.	.	16d\	.	16f/	.	.	.	.
.	.	16d\	.	16f/	.	8dd\J	.	.
.	.	16d\JJ	.	16f/JJ	.	.	.	.
*	*	*Xrep	*	*Xrep	*	*	*	*
=181	=181	=181	=181	=181	=181	=181	=181	=181
8AA/L]	.	16e\LL	.	16g/LL	.	4r	.	.
.	.	16e\	.	16g/	.	.	.	.
16GG#X/L	.	16e\	.	16g/	.	.	.	.
16AA/	.	16e\	.	16g/	.	.	.	.
16BB-/	.	16e\	.	16g/	.	8r	.	.
16AA/JJ	.	16e\	.	16g/	.	.	.	.
[<4.AA/	.	16e\	.	16g/	.	[>4.ccc#X\	.	sf
.	.	16e\	.	16g/	.	.	.	.
.	.	16e\	.	16g/	.	.	.	.
.	.	16e\	.	16g/	.	.	.	.
.	.	16e\	.	16g/	.	.	.	.
.	.	16e\JJ	.	16g/JJ	.	.	.	.
=182	=182	=182	=182	=182	=182	=182	=182	=182
*	*	*rep	*	*rep	*	*	*	*
2.AA/_<	.	16e\LL	.	16g/LL	.	8ccc#\L]	.	.
.	.	16e\	.	16g/	.	.	.	.
.	.	16e\	.	16g/	.	8gg\	.	.
.	.	16e\	.	16g/	.	.	.	.
.	.	16e\	.	16g/	.	8aa\J	.	.
.	.	16e\	.	16g/	.	.	.	.
.	.	16e\	.	16g/	.	8bb-\L	.	.
.	.	16e\	.	16g/	.	.	.	.
.	.	16e\	.	16g/	.	8een\	.	.
.	.	16e\	.	16g/	.	.	.	.
.	.	16e\	.	16g/	.	8ff\J	.	.
.	.	16e\JJ	.	16g/JJ	.	.	.	.
*	*	*Xrep	*	*Xrep	*	*	*	*
=183	=183	=183	=183	=183	=183	=183	=183	=183
8AA/L]	.	16d\LL	.	16f/LL	.	4r	.	.
.	.	16d\	.	16f/	.	.	.	.
16GG#X/L	.	16d\	.	16f/	.	.	.	.
16AA/	.	16d\	.	16f/	.	.	.	.
16BB-/	.	16d\	.	16f/	.	8r	.	.
16AA/JJ	.	16d\	.	16f/	.	.	.	.
[4.AA/	.	16d\	.	16f/	.	[>4.ddd\	.	sf
.	.	16d\	.	16f/	.	.	.	.
.	.	16d\	.	16f/	.	.	.	.
.	.	16d\	.	16f/	.	.	.	.
.	.	16d\	.	16f/	.	.	.	.
.	.	16d\JJ	.	16f/JJ	.	.	.	.
=184	=184	=184	=184	=184	=184	=184	=184	=184
*	*	*rep	*	*rep	*	*	*	*
2.AA/]	.	16d\LL	.	16f/LL	.	8ddd\L]	.	.
.	.	16d\	.	16f/	.	.	.	.
.	.	16d\	.	16f/	.	8ff\	.	.
.	.	16d\	.	16f/	.	.	.	.
.	.	16d\	.	16f/	.	8gg\J	.	.
.	.	16d\	.	16f/	.	.	.	.
.	.	16d\	.	16f/	.	8aa\L	.	.
.	.	16d\	.	16f/	.	.	.	.
.	.	16d\	.	16f/	.	8dd\	.	.
.	.	16d\	.	16f/	.	.	.	.
.	.	16d\	.	16f/	.	8ee\J	.	.
.	.	16d\JJ	.	16f/JJ	.	.	.	.
*	*	*Xrep	*	*Xrep	*	*	*	*
=185	=185	=185	=185	=185	=185	=185	=185	=185
*tremolo	*	*	*	*	*	*	*	*
16AA/LL	.	16fLL 16d\	[ ff	16g#X/LL	[ ff	4r	[[	.
16AA/	.	16f 16d\	.	16g#/	.	.	.	.
16AA/	.	16f 16d\	.	16g#/	.	.	.	.
16AA/	.	16f 16d\	.	16g#/	.	.	.	.
16AA/	.	16f 16d\	.	16g#/	.	8r	.	.
16AA/	.	16f 16d\	.	16g#/	.	.	.	.
!	!	!	!	!	!	!	!	!LO:DY:b:rj
16AA/	.	16f 16d\	.	16g#/	.	[>4.fff\	.	ff
16AA/	.	16f 16d\	.	16g#/	.	.	.	.
16AA/	.	16f 16d\	.	16g#/	.	.	.	.
16AA/	.	16f 16d\	.	16g#/	.	.	.	.
16AA/	.	16f 16d\	.	16g#/	.	.	.	.
16AA/JJ	.	16fJJ 16d\	.	16g#/JJ	.	.	.	.
*	*	*	*	*	*	*	*v	*v
!!LO:PB:g=original
=186	=186	=186	=186	=186	=186	=186	=186
*	*	*rep	*	*rep	*	*	*
16AA/LL	.	16fLL 16d\	.	16g#X/LL	.	8fff\L]	.
16AA/	.	16f 16d\	.	16g#/	.	.	.
16AA/	.	16f 16d\	.	16g#/	.	8ddd\	.
16AA/	.	16f 16d\	.	16g#/	.	.	.
16AA/	.	16f 16d\	.	16g#/	.	8bbn\J	.
16AA/	.	16f 16d\	.	16g#/	.	.	.
16AA/	.	16f 16d\	.	16g#/	.	8gg#X\L	.
16AA/	.	16f 16d\	.	16g#/	.	.	.
16AA/	.	16f 16d\	.	16g#/	.	8ff\	.
16AA/	.	16f 16d\	.	16g#/	.	.	.
16AA/	.	16f 16d\	.	16g#/	.	8dd\J	.
16AA/JJ	.	16fJJ 16d\	.	16g#/JJ	.	.	.
*	*	*Xrep	*	*Xrep	*	*	*
=187	=187	=187	=187	=187	=187	=187	=187
*	*	*rep	*	*	*	*	*
16AA/LL	.	16fLL 16d\	.	16G#X/LL	.	8bn\L	.
16AA/	.	16f 16d\	.	16G#/	.	.	.
!	!	!	!	!	!	!LO:TX:b:Bi:t=dim_:problem:dynamics with extention lines	!
!	!	!	!	!	!	!	!LO:HP:b:Bi:t=dim:ext=ud
!	!	!LO:TX:b:Bi:t=dim_:problem:dynamics with extention lines	!	!	!	!	!
!	!	!	!LO:HP:b:Bi:t=dim:ext=ud	!	!	!	!
!	!	!	!	!LO:TX:b:Bi:t=dim_:problem:dynamics with extention lines	!	!	!
!	!	!	!	!	!LO:HP:b:Bi:t=dim:ext=ud	!	!
16AA/	.	16f 16d\	>	16G#/	>	8ff\	>
16AA/	.	16f 16d\	.	16G#/	.	.	.
16AA/	.	16f 16d\	.	16G#/	.	8dd\J	.
16AA/	.	16f 16d\	.	16G#/	.	.	.
16AA/	.	16f 16d\	.	16G#/	.	8b/L	.
16AA/	.	16f 16d\	.	16G#/	.	.	.
16AA/	.	16f 16d\	.	16G#/	.	8g#X/	.
16AA/	.	16f 16d\	.	16G#/	.	.	.
16AA/	.	16f 16d\	.	16G#/	.	8f/J	.
16AA/JJ	.	16fJJ 16d\	.	16G#/JJ	]	.	.
*	*	*Xrep	*	*	*	*	*
=188	=188	=188	=188	=188	=188	=188	=188
16AA/LL	.	16F/LL	]]	16G#X/LL	.	(<8d/L	.
16AA/	.	16F/	.	16G#/	.	.	.
16AA/	.	16F/	.	16G#/	.	8c#X/	.
16AA/	.	16F/	.	16G#/	.	.	.
16AA/	.	16F/	.	16G#/	.	8d/J	.
16AA/	.	16F/	.	16G#/	.	.	]]
16AA/	.	16F/	.	16G#/	.	8f/L	.
16AA/	.	16F/	.	16G#/	.	.	.
16AA/	.	16F/	.	16G#/	.	8e/	.
16AA/	.	16F/	.	16G#/	.	.	.
16AA/	.	16F/	.	16G#/	.	8d/J)	.
16AA/JJ	.	16F/JJ	.	16G#/JJ	.	.	.
*Xtremolo	*	*Xtremolo	*	*Xtremolo	*	*	*
=189	=189	=189	=189	=189	=189	=189	=189
4AA/	.	4E/	p	8A/L	p	8c#X/L	p
.	.	.	.	8c#X/	.	8e/	.
8r	.	8r	.	8d/J	.	8f/J	.
(>8AA/L	.	4r	.	4.e/	.	4.g/	.
16GG#X/L	.	.	.	.	.	.	.
16AA/	.	.	.	.	.	.	.
16BBn/	.	8r	.	.	.	.	.
16C#X/JJ	.	.	.	.	.	.	.
=190	=190	=190	=190	=190	=190	=190	=190
4D/	.	8r	.	(<4d/	.	(<[<4.f/	.
.	.	8r	.	.	.	.	.
8Cn/	.	(<8A/	.	8e-X/	.	.	.
!LO:TX:a:t=P:W źródle łuk kończy się za nuta:problem	!	!	!	!	!	!	!
4.BB-/)	.	8B-/L)	.	4.d/)	.	4f/]	.
.	.	(<16F/L	.	.	.	.	.
.	.	16F#X/	.	.	.	.	.
.	.	16G/	.	.	.	8e/)	.
.	.	16G#X/JJ	.	.	.	.	.
=191	=191	=191	=191	=191	=191	=191	=191
4AA/	.	4A/)	.	8c#X/L	.	8e/L	.
.	.	.	.	8c#/	.	(<8e/	.
8r	.	8r	.	8d/J	.	8f/J	.
(>8AA/L	.	4r	.	4.e/	.	4.g/)	.
16GG#X/L	.	.	.	.	.	.	.
16AA/	.	.	.	.	.	.	.
16BBn/	.	8r	.	.	.	.	.
16C#X/JJ	.	.	.	.	.	.	.
=192	=192	=192	=192	=192	=192	=192	=192
8D/L)	.	4r	.	(<2.d/	.	(<8f#X/	.
16D/L	.	.	.	.	.	[<4fn/	.
16C#X/	.	.	.	.	.	.	.
16D/	.	8r	.	.	.	.	.
16Cn/JJ	.	.	.	.	.	.	.
4.BB-/	.	8r	.	.	.	4f/]	.
.	.	(<16F/LL	.	.	.	.	.
.	.	16F#X/	.	.	.	.	.
.	.	16G/	.	.	.	[<8e/	.
.	.	16G#X/JJ	.	.	.	.	.
=193	=193	=193	=193	=193	=193	=193	=193
*	*	*	*	*	*	*	*^
*	*	*	*	*	*^	*	*	*
*	*	*	*^	*	*	*	*	*	*
*tremolo	*	*	*	*	*	*	*	*	*	*
!	!	!	!	!	!	!	!	!LO:TX:b:Bi:t=cres_:problem:dynamics with extention lines	!	!
!	!	!	!	!	!	!	!	!	!LO:HP:b:Bi:t=cres:ext=ud	!
!	!	!	!	!	!LO:TX:b:Bi:t=cres_:problem:dynamics with extention lines	!	!	!	!	!
!	!	!	!	!	!	!LO:HP:b:Bi:t=cres:ext=ud	!	!	!	!
!	!	!	!	!	!	!	!	!LO:TX:t=P:problem:mixed beam	!	!
16AA/LL	.	4A/)	.	.	8c#X/L)	<	.	8e/L])	<	.
16AA/	.	.	.	.	.	.	.	.	.	.
16AA/	.	.	.	.	8e/	.	.	8cc#X\	.	.
16AA/	.	.	.	.	.	.	.	.	.	.
!	!	!LO:TX:b:Bi:t=cres_:problem:dynamics with extention lines	!	!	!	!	!	!	!	!
!	!	!	!LO:HP:b:Bi:t=cres:ext=ud	!	!	!	!	!	!	!
16AA/	.	8r	<	.	8f/J	.	.	8dd\J	.	.
16AA/	.	.	.	.	.	.	.	.	.	.
16AA/	.	8r	.	.	8g/	.	.	8ee\	.	.
16AA/	.	.	.	.	.	.	.	.	.	.
16AA/	.	(>4d\	.	.	(<4g#X/	.	fz	(>4ff'>\	.	fz
16AA/	.	.	.	.	.	.	.	.	.	.
16AA/	.	.	.	.	.	.	.	.	.	.
16AA/JJ	.	.	.	.	.	.	.	.	.	.
=194	=194	=194	=194	=194	=194	=194	=194	=194	=194	=194
16AA/LL	.	8c#X\)	.	.	8a/)	.	.	8ee\)	.	.
16AA/	.	.	.	.	.	.	.	.	.	.
!	!	!	!	!	!LO:N:vis=4.	!	!	!	!	!
16AA/	.	(>4bn\	.	fz	(>4dd\	.	fz	(>4gg#X\	.	fz
16AA/	.	.	.	.	.	.	.	.	.	.
16AA/	.	.	.	.	.	.	.	.	.	.
16AA/	.	.	.	.	.	.	.	.	.	.
16AA/	.	8a\)	.	.	8cc#X\)	.	.	8aa\)	.	.
16AA/	.	.	.	.	.	.	.	.	.	.
16AA/	.	(>4g#X\	.	fz	[>4een\	.	fz	(>4ddd\	.	fz
16AA/	.	.	.	.	.	.	.	.	.	.
16AA/	.	.	.	.	.	.	.	.	.	.
16AA/JJ	.	.	[[	.	.	.	.	.	.	.
*Xtremolo	*	*	*	*	*	*	*	*	*	*
!!LO:LB:g=original
=195	=195	=195	=195	=195	=195	=195	=195	=195	=195	=195
4AA/	.	4a\)	ff	.	4ee\]	[ ff	.	8ccc#X\L)	[ ff	.
.	.	.	.	.	.	.	.	8eee\	.	.
8r	.	8r	.	.	8r	.	.	8ccc#\J	.	.
4r	.	4r	.	.	4r	.	.	8aa\L	.	.
.	.	.	.	.	.	.	.	8ee\	.	.
!	!	!	!	!	!	!	!	!LO:SIC:v:s=8cc#\J	!	!
8r	.	8r	.	.	8r	.	.	8cc\J	.	.
*	*	*	*	*	*	*	*	*	*v	*v
*	*	*	*v	*v	*	*	*	*	*
*	*	*	*	*	*v	*v	*	*
=196	=196	=196	=196	=196	=196	=196	=196
8r	.	8r	.	8r	.	8a\L	<
8AA/L	.	8A/L	<	8a/L	<	8aa\	.
8BB-/J	.	8B-/J	.	8b-/J	.	8bb-\J	.
8BBn/L	.	8Bn/L	.	8bn/L	.	8bbn\L	.
8C/	.	8c/	.	8cc/	[[	8ccc\	[[
8C#X/J	.	8c#X/J	[	8cc#X/J	.	8ccc#X\J	.
=197	=197	=197	=197	=197	=197	=197	=197
[>4.D\	.	[>4.d\	ff	[>4.dd\	ff	[>4.ddd\	ff
8D\L]	.	8d\L]	.	8dd\L]	.	8ddd\L]	.
8F\	.	8f\	.	8ff\	.	8ff\	.
8G\J	.	8g\J	.	8gg\J	.	8gg\J	.
=198	=198	=198	=198	=198	=198	=198	=198
8A\L	.	8a\L	.	8aa\L	.	8aa\L	.
8D\	.	8d\	.	8dd\	.	8dd\	.
8E\J	.	8e\J	.	8ee\J	.	8ee\J	.
8F/L	.	8f\L	.	8ff\L	.	8ff\L	.
8AA/	.	8A\	.	8a\	.	8a\	.
8D/J	.	8d\J	.	8dd\J	.	8dd\J	.
=199	=199	=199	=199	=199	=199	=199	=199
4DD/	.	4D/	.	4d/	.	4d/	.
8r	.	8r	.	8r	.	8r	.
!	!	!	!	!	!LO:DY:b:rj	!	!
8r	.	8r	p	(>[>4.ff^<\	p	4r	.
!	!LO:DY:b:rj	!	!	!	!	!	!
(>8d'>\L	p	(>8f'>\L	.	.	.	.	.
8e'>\J)	.	8g'>\J	.	.	.	8r	.
=200	=200	=200	=200	=200	=200	=200	=200
4.f\	.	4.a\)	.	8ff\L]	.	2.r	.
.	.	.	.	8dd\	.	.	.
.	.	.	.	8cc#X\J	.	.	.
4.d\	.	(>[>4.f\	.	8dd\L	.	.	.
.	.	.	.	8bb-\	.	.	.
.	.	.	.	8aa\J)	.	.	.
=201	=201	=201	=201	=201	=201	=201	=201
(>2.B-\	.	8f\L]	.	2.gg#Xtt>\	>	2.r	.
.	.	8d\	>	.	.	.	.
.	.	8e\J	.	.	.	.	.
.	.	8f\L	.	.	.	.	.
.	.	8e\	]	.	.	.	.
.	.	8d\J)	.	.	]	.	.
.	.	.	.	16qqff#X/LL	.	.	.
.	.	.	.	16qqgg#/JJ	.	.	.
=202	=202	=202	=202	=202	=202	=202	=202
4A\)	.	4c#X\	.	4aa\	.	8r	.
!	!	!	!	!	!	!	!LO:DY:b:rj
.	.	.	.	.	.	8cc#X\L	p
8r	.	8r	.	8r	.	8ee\J	.
4r	.	4r	.	4r	.	4a\	.
8r	.	8r	.	8r	.	8r	.
=203	=203	=203	=203	=203	=203	=203	=203
!	!	!LO:TX:a:Bi:t=Col 1mo 8va	!	!LO:TX:a:Bi:t=Col 1mo	!	!	!
[>4.a\	ff	[>4.a\yy	ff	[>4.aa\yy	ff	[>4.aa\	ff
8a\L]	.	8a\L]yy	.	8aa\L]yy	.	8aa\L]	.
8c\	.	8c\yy	.	8cc\yy	.	8cc\	.
8d\J	.	8d\Jyy	.	8dd\Jyy	.	8dd\J	.
=204	=204	=204	=204	=204	=204	=204	=204
8e\L	.	8e\Lyy	.	8ee\Lyy	.	8ee\L	.
8A\	.	8A\yy	.	8a\yy	.	8a\	.
8Bn\J	.	8Bn\Jyy	.	8bn\Jyy	.	8bn\J	.
8c\L	.	8c/Lyy	.	8cc/Lyy	.	8cc/L	.
8E\	.	8E/yy	.	8e/yy	.	8e/	.
8A\J	.	8A/Jyy	.	8a/Jyy	.	8a/J	.
!!LO:LB:g=original
=205	=205	=205	=205	=205	=205	=205	=205
4AA/	.	4A/	.	4A/	.	4A/	.
8r	.	8r	.	8r	.	8r	.
!	!LO:DY:b:rj	!	!	!	!	!	!
(>[>4.c^<\	f	4r	.	8r	.	8r	.
!	!	!	!	!	!	!	!LO:DY:b:rj
.	.	.	.	8cc'>\L	p	8ee'>\L	p
.	.	8r	.	8bn'>\J	.	8dd'>\J	.
=206	=206	=206	=206	=206	=206	=206	=206
8c\L]	.	2.r	.	[>2.a\	.	2.cc\	.
8A\	.	.	.	.	.	.	.
8G#X\J	.	.	.	.	.	.	.
8A\L	.	.	.	.	.	.	.
8f\	.	.	.	.	.	.	.
8e\J)	.	.	.	.	.	.	.
=207	=207	=207	=207	=207	=207	=207	=207
2.d#X^<tt>\	.	2.r	.	8a\L]	>	2.ff#X\	.
.	.	.	.	(>8a\	.	.	.
.	.	.	.	8bn\J	.	.	.
.	.	.	.	8cc\L	.	.	.
.	.	.	.	8b\	.	.	.
.	.	.	.	8a\J)	]	.	.
16qqc#X/LL	.	.	.	.	.	.	.
16qqd#/JJ	.	.	.	.	.	.	.
=208	=208	=208	=208	=208	=208	=208	=208
(>[>2.e\	.	[>2.E/	.	(>2.g#X/	.	(>8ee\L	.
.	.	.	.	.	.	8ffn\	.
.	.	.	.	.	.	8ee\J	.
.	.	.	.	.	.	8dd\L	.
.	.	.	.	.	.	8ee\	.
.	.	.	.	.	.	8dd\J	.
=209	=209	=209	=209	=209	=209	=209	=209
8e\L]	.	2.E/_<	.	4.a/	.	8cc\L	.
8f\	.	.	.	.	.	8dd\	.
8e\J	.	.	.	.	.	8cc\J	.
!	!	!	!	!LO:TX:a:t=P:w źródle łuk kończy się za nutą:problem	!	!	!
8d\L	.	.	.	4.f/)	.	8bn\L	.
8e\	.	.	.	.	.	8cc\	.
8d\J)	.	.	.	.	.	8b\J)	.
=210	=210	=210	=210	=210	=210	=210	=210
(>8c\L	.	2.E/_<	.	(>[<2.e/	.	(<8a/L	.
8d\	.	.	.	.	.	8bn/	.
8c\J	.	.	.	.	.	8a/J	.
8Bn\L	.	.	.	.	.	8g#X/L	.
8c\	.	.	.	.	.	8a/	.
8B\J	.	.	.	.	.	8g#/J	.
=211	=211	=211	=211	=211	=211	=211	=211
[>2.c\)	.	2.E/]	.	4.e/]	.	8a/L	.
.	.	.	.	.	.	8g#X/	.
.	.	.	.	.	.	8a/J	.
!	!	!	!	!LO:N:vis=4	!	!	!
.	.	.	.	4.g/	.	8b-X\L	.
.	.	.	.	.	.	8cc\	.
.	.	.	.	.	.	8b-\J	.
=212	=212	=212	=212	=212	=212	=212	=212
4c\]	.	4F/	.	4f/)	.	4a\)	.
8r	.	8r	.	8r	.	8r	.
[>4.f\	fz	4r	.	4r	.	4r	.
.	.	8r	.	8r	.	8r	.
=213	=213	=213	=213	=213	=213	=213	=213
8f\L]	.	2.r	.	[>4.ff\	f	2.r	.
8A\	.	.	.	.	.	.	.
8B-\J	.	.	.	.	.	.	.
8c\L	.	.	.	8ff\L]	.	.	.
8F\	.	.	.	8a\	.	.	.
!	!LO:HP:b:Bi:t=dimin&colon;	!	!	!	!LO:HP:b:Bi:t=dimi	!	!
8G\J	>	.	.	8b-\J	>	.	.
=214	=214	=214	=214	=214	=214	=214	=214
8A\L	.	2.r	.	[>4.cc\	.	2.r	.
8C\	.	.	.	.	.	.	.
8E\J	.	.	.	.	.	.	.
[>4.F\	.	.	.	8cc\L]	.	.	.
.	.	.	.	8f\	.	.	.
.	.	.	.	8g\J	.	.	.
=215	=215	=215	=215	=215	=215	=215	=215
!	!	!LO:TX:a:t=P:w źródle duży X na kresce taktowej:problem	!	!	!	!	!
!LO:TX:t=P:problem:mixed beam	!	!	!	!	!	!	!
8F\L]	.	2.r	.	4a\	p	2.r	.
8AA/	.	.	.	.	.	.	.
8BB-/J	.	.	.	8r	.	.	.
8C/L	.	.	.	4r	.	.	.
8FF/	.	.	.	.	.	.	.
8F/J	.	.	.	8r	.	.	.
!!LO:LB:g=original
=216	=216	=216	=216	=216	=216	=216	=216
!	!LO:DY:a	!	!	!	!	!	!
2.FF/	pp	4r	.	2.r	.	4r	.
!	!	!	!	!	!	!	!LO:DY:b:rj
.	.	8r	.	.	.	8r	pp
.	.	[>4.c\	pp	.	.	[<4.a/	.
=217	=217	=217	=217	=217	=217	=217	=217
2.F\	.	2.c\_>	.	4r	.	2.a/_<	.
.	.	.	.	8r	.	.	.
.	.	.	.	(>4.d#X/	pp	.	.
=218	=218	=218	=218	=218	=218	=218	=218
!	!	!LO:TX:a:t=P:w źródle podwójna ligatura:problem	!	!	!	!	!
(>8E\L	.	2.c\_>	.	4.e/	.	2.a/_<	.
16D#X\L	.	.	.	.	.	.	.
16E\	.	.	.	.	.	.	.
16F\	.	.	.	.	.	.	.
16E\JJ	.	.	.	.	.	.	.
8D#X/L	.	.	.	[<4.f#X/	.	.	.
16C##X/L	.	.	.	.	.	.	.
16D#/	.	.	.	.	.	.	.
16E/	.	.	.	.	.	.	.
&(<16D#/JJ	.	.	.	.	.	.	.
=219	=219	=219	=219	=219	=219	=219	=219
8Dn/L&)	.	4.B#X\]	.	2.f#/_<	.	2.a/_<	.
16C#X/L	.	.	.	.	.	.	.
16D/	.	.	.	.	.	.	.
16E/	.	.	.	.	.	.	.
16D/JJ	.	.	.	.	.	.	.
8C#/L	.	4.c#X\	.	.	.	.	.
16BB#X/L	.	.	.	.	.	.	.
16C#/	.	.	.	.	.	.	.
16D/	.	.	.	.	.	.	.
16C#/JJ)	.	.	.	.	.	.	.
=220	=220	=220	=220	=220	=220	=220	=220
(>2.Cn/	.	4.d\	.	2.f#/_<	.	2.a/_>	.
.	.	[>4.e-X\	.	.	.	.	.
=221	=221	=221	=221	=221	=221	=221	=221
4.C-X/	.	2.e-\_>	.	2.g-X/_<	.	4.a/]	.
8BB-X/L	.	.	.	.	.	(>4.b-\	.
16AA/L	.	.	.	.	.	.	.
16BB-/	.	.	.	.	.	.	.
16C-/	.	.	.	.	.	.	.
!LO:TX:a:t=P:w źródle łuk kończy się na kresce taktowej:problem	!	!	!	!	!	!	!
16BB-/JJ)	.	.	.	.	.	.	.
=222	=222	=222	=222	=222	=222	=222	=222
[<2.AA/	.	2.e-\_>	.	4.g-/])	.	[>2.cc\	.
.	.	.	.	8g-X/L	.	.	.
.	.	.	.	(>16f/L	.	.	.
.	.	.	.	16g-X/	.	.	.
.	.	.	.	16a-X/	.	.	.
.	.	.	.	16g-/JJ	.	.	.
=223	=223	=223	=223	=223	=223	=223	=223
2.AA/]	.	(>8e-\L]	.	[<2.f/	.	4.cc\_>	.
.	.	16d\L	.	.	.	.	.
.	.	16e-X\	.	.	.	.	.
.	.	16f\	.	.	.	.	.
.	.	16e-\JJ	.	.	.	.	.
.	.	4.e-\	.	.	.	8cc\L]	.
.	.	.	.	.	.	16bn\L	.
.	.	.	.	.	.	16cc\	.
.	.	.	.	.	.	16dd\	.
.	.	.	.	.	.	16cc\JJ	.
=224	=224	=224	=224	=224	=224	=224	=224
!	!	!LO:TX:t=P:problem:mixed beam	!	!	!	!	!
[<2.BB-/	.	8d\L)	.	8f/L]	.	(>[>4.b-\)	.
.	.	8D/	.	8B-/	.	.	.
.	.	8E-X/J	.	8c/J	.	.	.
.	.	[<4.F/	.	[<4.d/)	.	8b-\L]	.
.	.	.	.	.	.	16a\L	.
.	.	.	.	.	.	16b-\	.
.	.	.	.	.	.	16cc\	.
.	.	.	.	.	.	16b-\JJ	.
!!LO:LB:g=original
=225	=225	=225	=225	=225	=225	=225	=225
!	!	!	!	!	!	!LO:TX:b:Bi:t=poco cres_:problem:dynamics with extention lines	!
!	!	!	!	!	!	!	!LO:HP:b:Bi:t=poco cres:ext=ud
2.BB-/_<	.	8F/L]	.	8d/L]	.	[>4.b-\	<
!	!	!	!	!LO:TX:b:Bi:t=poco cres_:problem:dynamics with extention lines	!	!	!
!	!	!	!	!	!LO:HP:b:Bi:t=poco cres:ext=ud	!	!
!	!	!LO:TX:b:Bi:t=poco cres_:problem:dynamics with extention lines	!	!	!	!	!
!	!	!	!LO:HP:b:Bi:t=poco cres:ext=ud	!	!	!	!
.	.	8G-X/	<	8e-X/	<	.	.
.	.	8Gn/J	.	8en/J	.	.	.
.	.	[<4.A/	.	[>4.f/	.	8b-\L]	.
.	.	.	.	.	.	8cc\	.
.	.	.	.	.	.	8cc#X\J)	.
=226	=226	=226	=226	=226	=226	=226	=226
4BB-/]	.	4.A/]	.	4.f/]	.	8dd\L	.
.	.	.	.	.	.	(>16cc#X\L	.
.	.	.	.	.	.	16dd\	.
8r	.	.	.	.	.	16ee-X\	.
.	.	.	.	.	[	16dd\JJ	.
!	!	!	!	!LO:N:vis=4	!	!	!
[<4.BB-/	.	[<4.G#X/	.	(>[<4.d/	.	8ee-'>\L)	.
.	.	.	.	.	.	16cc#\L	.
.	.	.	.	.	.	(>16dd\	.
.	.	.	.	.	.	16ee-\	.
.	.	.	.	.	.	16dd\JJ	.
=227	=227	=227	=227	=227	=227	=227	=227
2.BB-/]	.	2.G#/]	.	4.d/_<	.	8ff\L)	.
.	.	.	.	.	.	(>16cc#X\L	.
.	.	.	.	.	.	16dd\	.
.	.	.	.	.	.	16een\	.
.	.	.	.	.	.	16dd\JJ	.
!	!	!	!	!	!	!LO:TX:a:t=P:W źródle łuk kończy się za nutą:problem	!
.	.	.	.	8d/L]	.	4.ff\)	[[
.	.	.	.	16c#X/L	.	.	.
.	.	.	.	16d/	.	.	.
.	.	.	.	16e/	.	.	.
.	.	.	[	16d/JJ)	.	.	.
=228	=228	=228	=228	=228	=228	=228	=228
[<2.AA/	.	4.A/	f	2.d/	f	(>8ff#X\L	f
.	.	.	.	.	.	8ee\	.
.	.	.	.	.	.	[>8dd\J	.
!	!	!LO:TX:b:Bi:t=dim_:problem:dynamics with extention lines	!	!	!	!	!
!	!	!	!LO:HP:b:Bi:t=dim:ext=ud	!	!	!	!
!	!	!	!	!	!	!	!LO:HP:b:Bi:t=dim&colon;
.	.	4.F#X/	>	.	>	8dd\L]	>
.	.	.	.	.	.	8cc#X\	.
.	.	.	.	.	.	[>8bn\J	.
=229	=229	=229	=229	=229	=229	=229	=229
2.AA/]	.	2.G/	] p	2.c#X/	p	8b/L])	p
.	.	.	.	.	.	(<8a/	.
.	.	.	.	.	.	8g#X/J	.
.	.	.	.	.	.	8a/L	.
.	.	.	.	.	.	8gn/	.
.	.	.	.	.	.	8e/J	.
=230||	=230||	=230||	=230||	=230||	=230||	=230||	=230||
*>C	*	*>C	*	*>C	*	*>C	*
*k[bnf#c#]	*	*k[bnf#c#]	*	*k[bnf#c#]	*	*k[bnf#c#]	*
!LO:TX:a:t=|:problem	!	!	!	!	!	!	!
8D\L	.	8F#/	.	4d/	.	4d/)	.
(>16C#\L	.	8f#L 8A\	.	.	.	.	.
16D\	.	.	.	.	.	.	.
16E\	.	8f#J 8A\	.	8r	.	8r	.
16D\JJ	.	.	.	.	.	.	.
*	*	*tremolo	*	*	*	*	*
8F#\L)	.	8f#L 8A\	.	4r	.	4r	.
(>16E#X\L	.	8f# 8A\	.	.	.	.	.
16F#\	.	.	.	.	.	.	.
16G\	.	8f#J 8A\	.	8r	.	8r	.
16F#\JJ	.	.	.	.	.	.	.
=231	=231	=231	=231	=231	=231	=231	=231
4A\)	.	8f#L 8A\	.	4r	.	2.r	.
.	.	8f# 8A\	.	.	.	.	.
8r	.	8f# 8A\	.	8r	p	.	.
!	!	!	!	!LO:TX:b:Bi:t=dol.	!	!	!
4r	.	8f# 8A\	.	[>4.ff#^>\	.	.	.
.	.	8f# 8A\	.	.	.	.	.
8r	.	8f#J 8A\	.	.	.	.	.
=232	=232	=232	=232	=232	=232	=232	=232
*	*	*rep	*	*	*	*	*
2.r	.	8f#L 8A\	.	8ff#\L]	.	2.r	.
.	.	8f# 8A\	.	(>8a\	.	.	.
.	.	8f# 8A\	.	8cc#\J	.	.	.
.	.	8f# 8A\	.	8dd\L	.	.	.
.	.	8f# 8A\	.	8f#\	.	.	.
.	.	8f#J 8A\	.	8g\J	.	.	.
*	*	*Xrep	*	*	*	*	*
!!LO:PB:g=original
=233	=233	=233	=233	=233	=233	=233	=233
!LO:TX:a:t=P:problem with rendering:problem	!	!	!	!	!	!LO:TX:a:t=P:problem with rendering:problem	!
!	!	!	!	!LO:TX:a:t=P:W źródle łuk po zmianie systemu obraca się:problem	!	!	!
2.r	.	8f#L 8A\	.	8a/L	.	2.r	.
.	.	8f# 8A\	.	8d/	.	.	.
.	.	8f# 8A\	.	8c#/J	.	.	.
.	.	8f# 8A\	.	8d/L	.	.	.
.	.	8f# 8A\	.	8b/	.	.	.
.	.	8f#J 8A\	.	8a/J)	.	.	.
=234	=234	=234	=234	=234	=234	=234	=234
.	.	.	.	(<8qa/	.	.	.
!	!	!	!	!	!	!LO:TX:a:t=P:problem with rendering:problem	!
8C#/L	.	8gL 8A\	.	4.e/)	.	2.r	.
(>16BB#X/L	.	8g 8A\	.	.	.	.	.
16C#/	.	.	.	.	.	.	.
16D/	.	8g 8A\	.	.	.	.	.
16C#/JJ	.	.	.	.	.	.	.
8E'>\L)	.	8g 8A\	.	4r	.	.	.
(>16D#X\L	.	8g 8A\	.	.	.	.	.
16E\	.	.	.	.	.	.	.
16F#\	.	8gJ 8A\	.	8r	.	.	.
16E\JJ	.	.	.	.	.	.	.
=235	=235	=235	=235	=235	=235	=235	=235
*	*	*rep	*	*	*	*	*
4A\)	.	8gL 8A\	.	4r	.	2.r	.
.	.	8g 8A\	.	.	.	.	.
8r	.	8g 8A\	.	8r	.	.	.
!	!	!	!	!LO:TX:a:t=P:diminuendolike accent:problem	!	!	!
4r	.	8g 8A\	.	(>[>4.gg^<\	.	.	.
.	.	8g 8A\	.	.	.	.	.
8r	.	8gJ 8A\	.	.	.	.	.
*	*	*Xrep	*	*	*	*	*
=236	=236	=236	=236	=236	=236	=236	=236
*	*	*rep	*	*	*	*	*
2.r	.	8gL 8A\	.	8gg\L]	.	2.r	.
.	.	8g 8A\	.	8ee\	.	.	.
.	.	8g 8A\	.	8cc#\J	.	.	.
.	.	8g 8A\	.	8a/L	.	.	.
.	.	8g 8A\	.	8g/	.	.	.
!	!	!	!	!LO:TX:a:t=P:w źródle łuk kończy sie na kresce taktowej:problem	!	!	!
.	.	8gJ 8A\	.	8e/J)	.	.	.
*	*	*Xrep	*	*	*	*	*
=237	=237	=237	=237	=237	=237	=237	=237
*	*	*rep	*	*	*	*	*
2.r	.	8gL 8A\	.	(<8c#/L	.	2.r	.
.	.	8g 8A\	.	8e/	.	.	.
.	.	8g 8A\	.	[<8g/J	.	.	.
.	.	8g 8A\	.	8g/L]	.	.	.
.	.	8g 8A\	.	8b/	.	.	.
!	!	!	!	!LO:TX:a:t=P:w źródle łuk kończy sie na kresce taktowej:problem	!	!	!
.	.	8gJ 8A\	.	8a/J)	.	.	.
*	*	*Xrep	*	*	*	*	*
*	*	*Xtremolo	*	*	*	*	*
=238	=238	=238	=238	=238	=238	=238	=238
*tremolo	*	*	*	*	*	*	*
8D\L	.	8f#L 8A\	.	8a/	.	8r	.
8D\	.	8A\	.	8f#/L	.	(>16g#X\LL	.
.	.	.	.	.	.	16a\	.
8D\J	.	8A\J	.	8f#/J	.	16b\	.
.	.	.	.	.	.	16a\JJ	.
*Xtremolo	*	*tremolo	*	*tremolo	*	*	*
8D/L	.	8A/L	.	8f#/L	.	[>4.ff#^<\	.
(<16C#/L	.	8A/	.	8f#/	.	.	.
16D/	.	.	.	.	.	.	.
16E/	.	8A/J	.	8f#/J	.	.	.
!LO:TX:a:t=P:w źródle łuk kończy sie na kresce taktowej:problem	!	!	!	!	!	!	!
16D/JJ)	.	.	.	.	.	.	.
=239	=239	=239	=239	=239	=239	=239	=239
*tremolo	*	*	*	*	*	*	*
8C#/L	.	8A#X/L	.	8f#/L	.	4ff#\])	.
8C#/	.	8A#/	.	8f#/	.	.	.
8C#/J	.	8A#/J	.	8f#/	.	(>[>8ee\	.
8BB/L	.	8B/L	.	8f#/	.	4ee^<\]	.
8BB/	.	8B/	.	8f#/	.	.	.
8BB/J	.	8B/J	.	8f#/J	.	[>8dd\	.
=240	=240	=240	=240	=240	=240	=240	=240
!	!	!	!	!	!	!LO:TX:b:Bi:t=cres_:problem:dynamics with extention lines	!
!	!	!	!	!	!	!	!LO:HP:b:Bi:t=cres:ext=ud
!	!	!	!	!LO:TX:b:Bi:t=cres_:problem:dynamics with extention lines	!	!	!
!	!	!	!	!	!LO:HP:b:Bi:t=cres:ext=ud	!	!
!	!	!LO:TX:b:Bi:t=cres_:problem:dynamics with extention lines	!	!	!	!	!
!	!	!	!LO:HP:b:Bi:t=cres:ext=ud	!	!	!	!
8AA/L	.	8c#/L	<	8f#/L	<	4dd\])	<
8AA/	.	8c#/	.	8f#/	.	.	.
8AA/J	.	8c#/	.	8f#/J	.	(>[>8cc#^<\	.
8GG#X/L	.	8c#/	.	8e#X/L	.	4cc#\]	.
8GG#/	.	8c#/	.	8e#/	.	.	.
8GG#/J	.	8c#/J	.	8e#/J	.	[>8b^<\	.
=241	=241	=241	=241	=241	=241	=241	=241
8FF#/L	.	8c#\L	.	8f#/L	.	4b\]	.
8FF#/	.	8c#\	.	8f#/	.	.	.
8FF#/J	.	8c#\J	.	8f#/J	.	(>8a\)	.
*Xtremolo	*	*Xtremolo	*	*Xtremolo	*	*	*
!LO:N:vis=4	!	!	!	!	!	!	!
4.BB/	.	4.B/	[[	4.d/	[[	8g#X\L	[
.	.	.	.	.	.	8b\	.
.	.	.	.	.	.	8dd\J	.
=242	=242	=242	=242	=242	=242	=242	=242
[<2.C#/	.	[<2.A/	f	[>2.c#/	f	(>8dd\L)	f
.	.	.	.	.	.	8cc#\	.
.	.	.	.	.	.	8b#X\J	.
.	.	.	>	.	>	8cc#\L	>
.	.	.	.	.	.	8f#\	.
!	!	!	!	!	!	!LO:TX:a:t=P:w źródle łuk kończy się na kresce taktowej:problem	!
.	.	.	.	.	.	8a\J)	.
!!LO:LB:g=original
=243	=243	=243	=243	=243	=243	=243	=243
!LO:TX:a:t=P:W źródle ligatura po zmianie systemu obraca się:problem	!	!	!	!	!	!	!
8C#/L]	.	8A/L]	.	8c#/L]	p	4.c#/	p
8FF#/	.	8A/	p	8c#/	.	.	.
8AA/J	.	8A/J	.	8c#/J	.	.	.
(<4.CC#/	.	(<4.B/	.	[<4.c#/	.	4.e#Xtt>/	.
.	.	.	.	.	.	16qqd#X/LL	.
.	.	.	.	.	.	16qqe#/JJ	.
=244	=244	=244	=244	=244	=244	=244	=244
4FF#/)	.	8A/)	.	4c#/]	.	4f#/	.
.	.	8f#\L	<	.	.	.	.
8r	.	8f#\J	.	8r	.	8r	.
.	.	16qqf#/LL	.	.	.	.	.
.	.	16qqg/JJ	.	.	.	.	.
4r	.	(>8f#\L	.	4r	.	4r	.
.	.	8e#X\	.	.	.	.	.
8r	.	8f#\J)	[	8r	.	8r	.
=245	=245	=245	=245	=245	=245	=245	=245
(>2.AA^>/	.	(>8g\L	>	(>2.g [<2.A^>/	.	2.r	.
.	.	8e\	.	.	.	.	.
.	.	8c#\J	.	.	.	.	.
.	.	8A/L)	.	.	.	.	.
.	.	(>16G#X/L	.	.	.	.	.
.	.	16A/	]	.	.	.	.
.	.	16B/	.	.	.	.	.
.	.	16c#/JJ	.	.	.	.	.
=246	=246	=246	=246	=246	=246	=246	=246
!	!	!	!	!	!	!LO:TX:b:Bi:t=Sherzo.	!
!	!	!	!	!	!	!LO:TX:a:t=|:problem	!
!	!	!	!	!LO:S:s=1:note:problem:note-level slur	!	!	!
4D\)	.	8d\)	.	8f#L) 8A/]	.	8a\L	.
.	.	8AL 8D/	p	8f# 8A/	p	(>16g#X\L	.
.	.	.	.	.	.	16a\	.
8r	.	8AJ 8D/	.	8f#J 8A/	.	16b\	.
.	.	.	.	.	.	16a\JJ	.
*	*	*tremolo	*	*tremolo	*	*	*
4r	.	8AL 8D/	.	8f#L 8A/	.	8dd'>\L)	.
.	.	8A 8D/	.	8f# 8A/	.	(>16cc#\L	.
.	.	.	.	.	.	16dd\	.
8r	.	8AJ 8D/	.	8f#J 8A/	.	16ee\	.
.	.	.	.	.	.	16dd\JJ	.
=247	=247	=247	=247	=247	=247	=247	=247
4r	.	8AL 8D/	.	8f#L 8A/	.	4ff#\)	.
.	.	8A 8D/	.	8f# 8A/	.	.	.
!LO:TX:b:Bi:t=dol&colon;	!	!	!	!	!	!	!
8r	.	8A 8D/	.	8f# 8A/	.	8r	.
[>4.f#^<\	.	8A 8D/	.	8f# 8A/	.	4r	.
.	.	8A 8D/	.	8f# 8A/	.	.	.
.	.	8AJ 8D/	.	8f#J 8A/	.	8r	.
=248	=248	=248	=248	=248	=248	=248	=248
*	*	*rep	*	*rep	*	*	*
8f#\L]	.	8AL 8D/	.	8f#L 8A/	.	2.r	.
(>8A\	.	8A 8D/	.	8f# 8A/	.	.	.
8c#\J	.	8A 8D/	.	8f# 8A/	.	.	.
8d\L	.	8A 8D/	.	8f# 8A/	.	.	.
8F#\	.	8A 8D/	.	8f# 8A/	.	.	.
8G\J)	.	8AJ 8D/	.	8f#J 8A/	.	.	.
*	*	*Xrep	*	*Xrep	*	*	*
=249	=249	=249	=249	=249	=249	=249	=249
*	*	*rep	*	*rep	*	*	*
(>8A\L	.	8AL 8D/	.	8f#L 8A/	.	2.ryy	.
8D\	.	8A 8D/	.	8f# 8A/	.	.	.
8C#\J	.	8A 8D/	.	8f# 8A/	.	.	.
8D\L	.	8A 8D/	.	8f# 8A/	.	.	.
8B\	.	8A 8D/	.	8f# 8A/	.	.	.
8A\J)	.	8AJ 8D/	.	8f#J 8A/	.	.	.
*	*	*Xrep	*	*Xrep	*	*	*
=250	=250	=250	=250	=250	=250	=250	=250
(<8qA/	.	.	.	.	.	.	.
!	!	!	!	!	!	!LO:TX:a:t=|:problem	!
4E\)	.	8AL 8C#/	.	8gL 8A/	.	8a\L	.
.	.	8A 8C#/	.	8g 8A/	.	(>16g#X\L	.
.	.	.	.	.	.	16a\	.
8r	.	8A 8C#/	.	8g 8A/	.	16b\	.
.	.	.	.	.	.	16a\JJ	.
4r	.	8A 8C#/	.	8g 8A/	.	8ee'>\L)	.
.	.	8A 8C#/	.	8g 8A/	.	(>16dd#X\L	.
.	.	.	.	.	.	16ee\	.
8r	.	8AJ 8C#/	.	8gJ 8A/	.	16ff#\	.
.	.	.	.	.	.	16ee\JJ	.
=251	=251	=251	=251	=251	=251	=251	=251
*	*	*rep	*	*rep	*	*	*
4r	.	8AL 8C#/	.	8gL 8A/	.	4aa\)	.
.	.	8A 8C#/	.	8g 8A/	.	.	.
8r	.	8A 8C#/	.	8g 8A/	.	8r	.
[>4.g^<\	.	8A 8C#/	.	8g 8A/	.	4r	.
.	.	8A 8C#/	.	8g 8A/	.	.	.
.	.	8AJ 8C#/	.	8gJ 8A/	.	8r	.
*	*	*Xrep	*	*Xrep	*	*	*
=252	=252	=252	=252	=252	=252	=252	=252
*	*	*rep	*	*rep	*	*	*
8g\L]	.	8AL 8C#/	.	8gL 8A/	.	2.r	.
(>8e\	.	8A 8C#/	.	8g 8A/	.	.	.
8c#\J	.	8A 8C#/	.	8g 8A/	.	.	.
8A\L	.	8A 8C#/	.	8g 8A/	.	.	.
8G\	.	8A 8C#/	.	8g 8A/	.	.	.
8E\J	.	8AJ 8C#/	.	8gJ 8A/	.	.	.
*	*	*Xrep	*	*Xrep	*	*	*
!!LO:LB:g=original
=253	=253	=253	=253	=253	=253	=253	=253
*	*	*rep	*	*rep	*	*	*
8C#/L	.	8AL 8C#/	.	8gL 8A/	.	4r	.
8E/	.	8A 8C#/	.	8g 8A/	.	.	.
[<8G/J	.	8A 8C#/	.	8g 8A/	.	8r	.
8G\L]	.	8A 8C#/	.	8g 8A/	.	[>4.a^</	.
8B\	.	8A 8C#/	.	8g 8A/	.	.	.
8A\J)	.	8AJ 8C#/	.	8gJ 8A/	.	.	.
*	*	*Xrep	*	*Xrep	*	*	*
*	*	*Xtremolo	*	*Xtremolo	*	*	*
=254	=254	=254	=254	=254	=254	=254	=254
4A\	.	4A 4D/	.	4f# 4A/	.	8a\L]	.
.	.	.	.	.	.	(>16g#X\L	.
.	.	.	.	.	.	16a\	.
8r	.	8r	.	8r	.	16b\	.
.	.	.	.	.	.	16a\JJ	.
8r	.	8r	.	8r	.	8ff#'>\L)	.
8A#X\L	.	8e\L	.	8f#/L	.	8cc#\	.
[>8B\J	sf	[>8d\J	sf	[<8f#/J	sf	[>8dd\J	sf
=255	=255	=255	=255	=255	=255	=255	=255
8B\L]	.	8d\L]	.	8f#/L]	.	8dd\L]	.
8F#\	.	8c#'>\	.	8e/	.	8a#X\	.
[>8G\J	sf	[>8B\J	sf	[<8d/J	sf	[>8b\J	sf
8G\L]	.	8B/L]	.	8d/L]	.	8b\L]	.
8D#X\	.	8A'</	.	8cn/	.	8f#\	.
[>8E\J	sf	[<8G/J	sf	[<8B/J	sf	[>8g\J	sf
=256	=256	=256	=256	=256	=256	=256	=256
4.E\]	.	4.G/]	<	4.B/]	<	8g/L]	.
.	.	.	.	.	.	8e/	<
.	.	.	.	.	.	[<8g/J	.
!	!	!	!	!LO:N:vis=4	!	!	!
4.D/	.	[>4.e\	[[	4.B-X/	[[	8g/L]	.
.	.	.	.	.	.	8d/	.
.	.	.	.	.	.	8g/J	[[
=257	=257	=257	=257	=257	=257	=257	=257
4C#/	.	4e\]	.	4A/	.	16g/LL	.
.	.	.	.	.	.	16f#/	.
.	.	.	.	.	.	16e/	.
.	.	.	.	.	.	16d#X/	.
8r	.	8r	.	8r	.	16e/	.
.	.	.	.	.	.	16f#/JJ	.
4r	.	4r	.	4r	.	16g/LL	.
.	.	.	.	.	.	16a/	.
.	.	.	.	.	.	16b/	.
.	.	.	.	.	.	16cc#/	.
8r	.	8r	.	8r	.	16dd/	.
.	.	.	.	.	.	16ee/JJ	.
=258	=258	=258	=258	=258	=258	=258	=258
4.D/	.	8r	.	8r	.	4.ff#\	f
!	!	!	!LO:DY:b:rj	!	!	!	!
.	.	(>16c#\LL	f <	(>16cc#\LL	sf <	.	.
.	.	16d\	.	16dd\	.	.	.
.	.	16e\	.	16ee\	.	.	.
.	.	16d\JJ)	[	16dd\JJ)	[	.	.
4.Cn/	fz	8r	.	8r	.	4.ff#\	fz
.	.	(>16c#\LL	<	(>16cc#\LL	sf <	.	.
.	.	16d\	.	16dd\	.	.	.
.	.	16e\	.	16ee\	.	.	.
.	.	16d\JJ)	[[	16dd\JJ)	[[	.	.
=259	=259	=259	=259	=259	=259	=259	=259
4.BBn/	fz	8r	.	8r	.	4.gg\	fz
.	.	16c#\LL	.	(>16cc#\LL	.	.	.
.	.	16d\	.	16dd\	.	.	.
.	.	16e\	<	16ee\	.	.	.
.	.	16d\JJ	.	16dd\JJ)	.	.	.
4.BB-X/	fz	8r	.	[>4.dd\	.	4.gg#X\	fz
.	.	(>16c#\LL	.	.	.	.	.
.	.	16d\	.	.	.	.	.
.	.	16e\	.	.	.	.	.
!	!	!LO:TX:a:t=P:w źródle łuk kończy się na kresce taktowej:problem	!	!	!	!	!
.	.	16e#X\JJ)	[[	.	.	.	.
=260	=260	=260	=260	=260	=260	=260	=260
[<2.AA/	.	2.f#\	f	2.dd\]	f	(>8aa\L	f
.	.	.	.	.	.	16gg#X\L	.
.	.	.	.	.	.	16aa\	.
.	.	.	.	.	.	16bb\	.
.	.	.	.	.	.	16aa\JJ	.
.	.	.	.	.	.	16ggn\LL	.
.	.	.	.	.	.	16ff#\	.
.	.	.	.	.	.	16ee\	.
.	.	.	.	.	.	16dd\	.
.	.	.	.	.	.	16cc#\	.
.	.	.	.	.	.	16b\JJ)	.
=261	=261	=261	=261	=261	=261	=261	=261
!	!	!	!LO:HP:b:Bi:t=dimin	!	!LO:HP:b:Bi:t=dimin	!	!
2.AA/]	.	(>2.e\	>	(>2.g [<2.A/	>	(<16a/LL	.
.	.	.	.	.	.	16b/	.
.	.	.	.	.	.	16a/	.
.	.	.	.	.	.	16g#X/	.
.	.	.	.	.	.	16a/	.
!	!	!	!	!	!	!	!LO:HP:b:Bi:t=dimin
.	.	.	.	.	.	16a#X/JJ	>
.	.	.	.	.	.	16cc#/LL	.
.	.	.	.	.	.	16b/	.
.	.	.	.	.	.	16an/	.
!	!	!	!	!	!	!LO:SIC:v:s=16gn/	!
.	.	.	.	.	.	16g#/	.
.	.	.	.	.	.	16f#/	.
.	.	.	.	.	.	16e/JJ)	.
!!LO:LB:g=original
=262	=262	=262	=262	=262	=262	=262	=262
!	!	!	!	!LO:S:s=1:note:problem:note-level slur	!	!	!
8D/L	.	4d\)	p	4f#) 4A/]	p	4d/	p
(<16C#/L	.	.	.	.	.	.	.
16D/	.	.	.	.	.	.	.
16E/	.	8r	.	8r	.	8r	.
16D/JJ)	.	.	.	.	.	.	.
[<4.DD/	.	(>4.cn\	.	(>8f#/L	.	(>[>4.ddd\	.
.	.	.	.	16e#X/L	.	.	.
.	.	.	.	16f#/	.	.	.
.	.	.	.	16g/	.	.	.
.	.	.	.	16f#/JJ	.	.	.
=263	=263	=263	=263	=263	=263	=263	=263
2.DD/_<	.	8B/L	.	[<4.g/	.	8ddd\L]	.
.	.	16A#X/L	.	.	.	8bb\	.
.	.	16B/	.	.	.	.	.
.	.	16cn/	.	.	.	[>8gg\J	.
.	.	16B/JJ	.	.	.	.	.
.	.	4.B-X/	.	8g/L]	.	8gg\L]	.
.	.	.	.	16f#/L	.	8ff#\	.
.	.	.	.	16g/	.	.	.
.	.	.	.	16a/	.	8ee\J	.
.	.	.	.	16g/JJ)	.	.	.
=264	=264	=264	=264	=264	=264	=264	=264
2.DD/_<	.	2.A/)	<[	(>[<4.f#/	<	(>8dd\L)	<
.	.	.	.	.	.	16cc#X\L	.
.	.	.	.	.	.	16dd\	.
.	.	.	.	.	.	16ee\	.
.	.	.	.	.	.	16dd\JJ	.
.	.	.	.	8f#/L]	.	4.ccn\	.
.	.	.	.	16e#X/L	.	.	.
.	.	.	.	16f#/	.	.	.
.	.	.	.	16g/	.	.	.
.	.	.	.	16f#/JJ)	[[	.	[[
=265	=265	=265	=265	=265	=265	=265	=265
2.DD/_<	.	(<4G/	>	(<8g/L	>	8b/L	>
.	.	.	.	8e/	.	8g/	.
.	.	8A/	.	8d/J	.	8f#/J	.
.	.	8B-X/L	.	4.c#/)	]	4.e/	]
.	.	16A/L	.	.	.	.	.
.	.	16G/	]	.	.	.	.
.	.	16F#/	.	.	.	.	.
.	.	16G/JJ)	.	.	.	.	.
=266	=266	=266	=266	=266	=266	=266	=266
8DD/L]	.	8F#/L	p	8d/L	p	8d/)	p
8D/	.	8A/	.	8f# 8d/	.	(>16g#X\LL	.
.	.	.	.	.	.	16a\	.
8D/J	.	8A/J	.	8f#J 8d/	.	16b\	.
.	.	.	.	.	.	16a\JJ)	.
*tremolo	*	*	*	*tremolo	*	*	*
8C#/L	.	(<8A/L	.	8gL 8e/	.	(>4.aa\	.
8C#/	.	16G#X/L	.	8g 8e/	.	.	.
.	.	16A/	.	.	.	.	.
8C#/J	.	16B/	.	8gJ 8e/	.	.	.
.	.	16A/JJ)	.	.	.	.	.
=267	=267	=267	=267	=267	=267	=267	=267
*	*	*tremolo	*	*	*	*	*
8D/L	.	8A/L	.	8f#L 8d/	.	8ff#\L)	.
8D/	.	8A/	.	8f# 8d/	.	8f#'>\	.
8D/J	.	8A/	.	8f#J 8d/	.	8b'>\J	.
*Xtremolo	*	*	*	*	*	*	*
8AA/L	.	8A/	.	8gL 8e/	.	[<4.a/	.
(<16GG#X/L	.	8A/	.	8g 8e/	.	.	.
16AA/	.	.	.	.	.	.	.
16BB/	.	8A/J	.	8gJ 8e/	.	.	.
16AA/JJ)	.	.	.	.	.	.	.
=268	=268	=268	=268	=268	=268	=268	=268
*tremolo	*	*	*	*	*	*	*
8D/L	.	8A/L	.	8f#L 8d/	.	8a/]	.
8D/	.	8A/	.	8f# 8d/	.	(<16g#X/LL	.
.	.	.	.	.	.	16a/	.
8D/J	.	8A/J	.	8f#J 8d/	.	16b/	.
.	.	.	.	.	.	16a/JJ)	.
*	*	*Xtremolo	*	*	*	*	*
8C#/L	.	8A/L	.	8gL 8e/	.	(>4.aa\	.
8C#/	.	(<16G#X/L	.	8g 8e/	.	.	.
.	.	16A/	.	.	.	.	.
8C#/J	.	16B/	.	8gJ 8e/	.	.	.
.	.	16A/JJ)	.	.	.	.	.
=269	=269	=269	=269	=269	=269	=269	=269
*	*	*tremolo	*	*rep	*	*	*
8D/L	.	8A/L	.	8f#L 8d/	.	8ff#\L)	.
8D/	.	8A/	.	8f# 8d/	.	8f#'>\	.
8D/J	.	8A/	.	8f#J 8d/	.	8b'>\J	.
*Xtremolo	*	*	*	*	*	*	*
8AA/L	.	8A/	.	8gL 8e/	.	(>4.a\	.
(<16GG#X/L	.	8A/	.	8g 8e/	.	.	.
16AA/	.	.	.	.	.	.	.
16BB/	.	8A/J	.	8gJ 8e/	.	.	.
16AA/JJ)	.	.	.	.	.	.	.
*	*	*	*	*Xrep	*	*	*
*	*	*Xtremolo	*	*Xtremolo	*	*	*
=270	=270	=270	=270	=270	=270	=270	=270
8DD/	.	8A/	.	8f# 8d/	.	8dd\)	.
(>16G#X\LL	.	(>16g#X\LL	ff	(>16g#X/LL	ff	(>16gg#X\LL	ff
16A\	.	16a\	.	16a/	.	16aa\	.
16B-X\	.	16b-X\	.	16b-X/	.	16bb-X\	.
16A\JJ)	.	16a\JJ)	.	16a/JJ)	.	16aa\JJ)	.
[>4.d\	.	[>4.dd\	.	[>4.dd\	.	[>4.ddd\	.
=271||	=271||	=271||	=271||	=271||	=271||	=271||	=271||
*>D	*	*>D	*	*>D	*	*>D	*
*k[fncnb-]	*	*k[fncnb-]	*	*k[fncnb-]	*	*k[fncnb-]	*
8d\L]	.	8dd\L]	.	8dd\L]	.	8ddd\L]	.
8F\	.	8f\	.	8ff\	.	8ff\	.
8G\J	.	8g\J	.	8gg\J	.	8gg\J	.
8A\L	.	8a\L	.	8aa\L	.	8aa\L	.
8D\	.	8d\	.	8dd\	.	8dd\	.
8E\J	.	8e\J	.	8ee\J	.	8ee\J	.
=272	=272	=272	=272	=272	=272	=272	=272
!	!	!LO:TX:a:Bi:t=8va Col 1mo	!	!LO:TX:a:Bi:t=Col 1mo	!	!	!
8F/L	.	8f\Lyy	.	8ff\Lyy	.	8ff\L	.
8AA/	.	8A\yy	.	8a\yy	.	8a\	.
8C#X/J	.	8c#X\Jyy	.	8cc#X\Jyy	.	8cc#X\J	.
8D/L	.	8d/Lyy	.	8dd/Lyy	.	8dd/L	.
8FF/	.	8F/yy	.	8f/yy	.	8f/	.
8GG/J	.	8G/Jyy	.	8g/Jyy	.	8g/J	.
!!LO:LB:g=original
=273	=273	=273	=273	=273	=273	=273	=273
!	!	!	!	!LO:TX:a:t=P:Col 1mo zapisana w źródle jak repetycja //:problem	!	!	!
!	!	!LO:TX:a:Bi:t=P:8va Col 1mo zapisana w źródle jak repetycja //:problem	!	!	!	!	!
8AA/L	.	8A/Lyy	.	8a/Lyy	.	8a/L	.
8DD/	.	8D/yy	.	8d/yy	.	8d/	.
8EE/J	.	8E/Jyy	.	8e/Jyy	.	8e/J	.
8FF/L	.	8F/Lyy	.	8f/Lyy	.	8f/L	.
8GG/	.	8G/yy	.	8g/yy	.	8g/	.
8AA/J	.	8A/Jyy	.	8a/Jyy	.	8a/J	.
=274	=274	=274	=274	=274	=274	=274	=274
4BB-/	.	8B-/L	.	8b-/L	.	4b-\	.
!	!	!LO:TX:b:Bi:t=con tutta forza:dur=12e:ext=s:problem:text with extention lines	!	!	!	!	!
.	.	(<16A/L	.	(<16c#X/L	.	.	.
.	.	16B-/	.	16d/	.	.	.
8r	.	16c/	.	16e-X/	.	8r	.
.	.	16B-/JJ)	.	16d/JJ)	.	.	.
8r	.	[<4.B-/	.	[<4.d/	.	8r	.
8D'>\L	sf	.	.	.	.	8d/L	f
!	!	!	!	!	!	!LO:TX:b:Bi:t=con tutta forza:dur=9e:ext=s:problem:text with extention lines	!
8F'>\J	.	.	.	.	.	8f/J	.
=275	=275	=275	=275	=275	=275	=275	=275
4BB-'</	.	(>8B-/L]	.	8d/L]	.	4B-/	.
.	.	&(<16A/L	.	(<16c#X/L	.	.	.
.	.	16B-/	.	16d/	.	.	.
8r	.	16c/	.	16e-X/	.	8r	.
.	.	16B-/JJ&))	.	16d/JJ)	.	.	.
8r	.	[<4.B-/	.	[<4.d/	.	8r	.
8D'>\L	sf	.	.	.	.	8d/L	.
8F'>\J	.	.	.	.	.	8f/J	.
=276	=276	=276	=276	=276	=276	=276	=276
8AA/L	.	8B-/L]	.	8d/L]	.	8B-/L	.
8D/	sf	8d/	sf	8d/	sf	8d/	sf
8F/J	.	8f/J	.	8f/J	.	8f/J	.
8BB-/L	.	8B-\L	.	8B-/L	.	8B-/L	.
8D/	sf	8d\	sf	8d/	sf	8d/	sf
8F/J	.	8f\J	.	8f/J	.	8f/J	.
=277	=277	=277	=277	=277	=277	=277	=277
8BB-/L	.	8B-\L	<	8B-/L	<	8B-/L	<
8BB-/	.	8B-\	.	8B-/	.	8B-/	.
8BBn/J	.	8Bn\J	.	8Bn/J	.	8Bn/J	.
8C/L	.	8c\L	.	8c/L	.	8c/L	.
8C#X/	.	8c#X\	.	8c#X/	[[	8c#X/	[
8D/J	.	8d\J	[	8d/J	.	8d/J	.
=278	=278	=278	=278	=278	=278	=278	=278
*	*	*	*	*tremolo	*	*	*
8E-X/L	.	8e-X\L	ff	8e-X/L	ff	4e-X/	ff
8GG/	.	8B-\	.	8e-/	.	.	.
8GG/J	.	8B-\J	.	8e-/	.	8r	.
*tremolo	*	*tremolo	*	*	*	*	*
8GG/L	.	8B-/L	.	8e-/	.	[>4.eee-X\	.
8GG/	.	8B-/	.	8e-/	.	.	.
8GG/J	.	8B-/J	.	8e-/J	.	.	.
*Xtremolo	*	*Xtremolo	*	*Xtremolo	*	*	*
=279	=279	=279	=279	=279	=279	=279	=279
[<2.GG/	.	[<2.B-/	.	[<2.e-X/	.	8eee-\L]	.
.	.	.	.	.	.	8gg\	.
.	.	.	.	.	.	8aa-X\J	.
.	.	.	.	.	.	8bb-\L	.
.	.	.	.	.	.	8ee-X\	.
.	.	.	.	.	.	8ff\J	.
=280	=280	=280	=280	=280	=280	=280	=280
2.GG/_<	.	2.B-/_<	.	2.e-/_<	.	8gg\L	.
.	.	.	.	.	.	8b-X\	.
.	.	.	.	.	.	8dd\J	.
.	.	.	.	.	.	8ee-X\L	.
.	.	.	.	.	.	8g\	.
.	.	.	.	.	.	8b-\J	.
=281	=281	=281	=281	=281	=281	=281	=281
4GG/]	.	4B-/]	.	4e-/]	.	8e-X/L	.
.	.	.	.	.	.	8g/	.
8AA-X/	sf	8B-/	sf	8d/	sf	8f/J	sf
4GG/	.	4B-/	.	4e-X/	.	8e-/L	.
.	.	.	.	.	.	8g/	.
8AA-/	sf	8B-/	.	8d/	sf	8f/J	sf
=282	=282	=282	=282	=282	=282	=282	=282
[<2.GG/	.	[<2.B-/	.	[<2.e-X/	.	8e-X/L	<
.	.	.	.	.	.	8g/	.
.	.	.	.	.	.	8b-/J	.
.	.	.	.	.	.	8ee-X\L	.
.	.	.	.	.	.	8gg\	.
.	.	.	.	.	.	8bb-X\J	[
!!LO:PB:g=original
=283	=283	=283	=283	=283	=283	=283	=283
!	!	!LO:TX:a:t=P:W źródle po zmianie strony ligatura obraca się:problem	!	!	!	!	!
!LO:TX:t=P:problem:mixed beam	!	!	!	!	!	!	!
8GG/L]	.	8B-/L]	.	8e-/L]	.	4.eee-X\	ff
8G\	.	8B-/	ff	8e-X/	ff	.	.
8G\J	.	8B-/J	.	8e-/J	.	.	.
*tremolo	*	*tremolo	*	*tremolo	*	*	*
8G#X\L	.	8Bn/L	.	8f/L	.	[>4.ddd\	.
8G#\	.	8B/	.	8f/	.	.	.
8G#\J	.	8B/J	.	8f/J	.	.	.
*Xtremolo	*	*Xtremolo	*	*Xtremolo	*	*	*
=284	=284	=284	=284	=284	=284	=284	=284
[>2.A\	.	2.A/	.	[<2.f/	.	8ddd\L]	.
.	.	.	.	.	.	8aa\	.
.	.	.	.	.	.	8ff\J	.
.	.	.	.	.	.	8aa\L	.
.	.	.	.	.	.	8ff\	.
.	.	.	.	.	.	8dd\J	.
=285	=285	=285	=285	=285	=285	=285	=285
8A\L]	.	4.d\	.	4.f/]	.	4.a\	.
8F\	.	.	.	.	.	.	.
8D\J	.	.	.	.	.	.	.
4.AA/	.	4.e\	.	4.g 4.A/	.	4.cc#Xtt>\	.
.	.	.	.	.	.	16qqbn/LL	.
.	.	.	.	.	.	16qqcc#/JJ	.
=286	=286	=286	=286	=286	=286	=286	=286
[<2.DD/	.	[>2.d\	ff	[>2.f [<2.A/	ff	4dd\	.
.	.	.	.	.	.	8r	.
.	.	.	.	.	.	[>4.ddd\	fz
=287	=287	=287	=287	=287	=287	=287	=287
!	!	!	!	!LO:TX:b:Bi:t=dim_:problem:dynamics with extention lines	!	!	!
!	!	!	!	!	!LO:HP:b:Bi:t=dim:ext=ud	!	!
2.DD/_<	.	2.d\_>	>	2.f_> 2.A/_<	>	8ddd\L]	.
.	.	.	.	.	.	8ff\	.
.	.	.	.	.	.	8gg\J	.
.	.	.	.	.	.	8aa\L	.
.	.	.	.	.	.	8dd\	.
.	.	.	.	.	]	8ee\J	.
=288	=288	=288	=288	=288	=288	=288	=288
4DD/]	.	4d\]	p	4f] 4A/]	p	8ff\L	.
!	!	!	!	!	!	!	!LO:HP:b:Bi:t=dimin
.	.	.	.	.	.	8a\	>
8r	.	8r	.	8r	.	8cc#X\J	.
4r	.	4r	.	4r	.	8dd/L	.
.	.	.	.	.	.	8f/	.
8r	.	8r	.	8r	.	8g/J	.
=289	=289	=289	=289	=289	=289	=289	=289
2.r	.	2.r	.	2.r	.	8a/L	.
.	.	.	.	.	.	8d/	.
.	.	.	.	.	.	8e/J	.
.	.	.	.	.	.	8f/L	.
.	.	.	.	.	.	8A/	.
.	.	.	.	.	.	8c#X/J	.
=290	=290	=290	=290	=290	=290	=290	=290
2.r	.	4r	.	(>8r	.	4d/	p
.	.	.	.	8a'>\L	pp	.	.
.	.	8r	.	8cc#X'>\J	.	8r	.
.	.	8r	.	4dd\)	.	4r	.
.	.	(>8A'</L	pp	.	.	.	.
.	.	8c#X'</J	.	8r	.	8r	.
=291	=291	=291	=291	=291	=291	=291	=291
8r	.	4d\)	.	4r	.	4r	.
(>8AA'</L	.	.	.	.	.	.	.
8C#X'</J	.	8r	.	8r	.	8r	.
8D/L)	.	8r	.	8r	.	8r	.
!	!LO:DY:b:rj	!	!	!	!	!	!
8FF/	ff	8F/L	ff	8f/L	ff	8f/L	ff
8AA/J	.	8A/J	.	8a/J	.	8a/J	.
=292	=292	=292	=292	=292	=292	=292	=292
!	!	!	!	!LO:TX:a:t=P:W źródle ozdobna kreska końcowa wspólna dla wszystkich głosów:problem	!	!LO:TX:a:t=P:W źródle ozdobna kreska końcowa wspólna dla wszystkich głosów:problem	!
!LO:TX:a:t=P:W źródle ozdobna kreska końcowa wspólna dla wszystkich głosów:problem	!	!LO:TX:a:t=P:W źródle ozdobna kreska końcowa wspólna dla wszystkich głosów:problem	!	!	!	!	!
!	!	!LO:N:vis=2	!	!	!	!	!
2.DD;>/	.	2.D;>/	.	2.d;>/	.	2.d;>/	.
==	==	==	==	==	==	==	==
*-	*-	*-	*-	*-	*-	*-	*-
!!title: @{OTL};
!!!RDF**kern: > = above
!!!RDF**kern: < = below
!!!RDF**dynam: < = "cres", fontstyle= "bold-italic"
!!!RDF**dynam: > = "dim", fontstyle= "bold-italic"
!!!RDF**kern: N = linked
!!!RDF**kern: i = editorial accidental
!!!EED: Wojciech Jakubiak-Danek
!!!EST: 2021-04-12
!!!URL-scan: http://repozytorium.nifc.pl/skany/pl-wtm-nut--r1141-1
!!!ONB-nifc: UWAGA: części Kwartetu: 1. Allegro, 2. Andante con variazioni, 3. Minuetto alla masovienne, 4. Finale
!!!ENC: Andrzej Kubiczek
!!!END: 2021-04-11
